;FLAVOR:Marlin
;TIME:444
;Filament used: 0.193202m
;Layer height: 0.16
;MINX:98.5
;MINY:107.564
;MINZ:0.2
;MAXX:136.5
;MAXY:127.433
;MAXZ:4.4
;TARGET_MACHINE.NAME:Creality Ender-3
;Generated with Cura_SteamEngine 5.10.2
M140 S70
M105
M190 S70
M104 S240
M105
M109 S240
; Ender 3 Custom Start G-code
G92 E0 ; Reset Extruder
G28 ; Home all axes
G1 Z2.0 F3000 ; Move Z Axis up little to prevent scratching of Heat Bed
G1 X0.1 Y20 Z0.3 F5000.0 ; Move to start position
G1 X0.1 Y200.0 Z0.3 F1500.0 E15 ; Draw the first line
G1 X0.4 Y200.0 Z0.3 F5000.0 ; Move to side a little
G1 X0.4 Y20 Z0.3 F1500.0 E30 ; Draw the second line
G92 E0 ; Reset Extruder
G1 Z2.0 F3000 ; Move Z Axis up little to prevent scratching of Heat Bed
G1 X5 Y20 Z0.3 F5000.0 ; Move over to prevent blob squish
M82 ;absolute extrusion mode
G92 E0
G92 E0
G1 F2700 E-5
;LAYER_COUNT:22
;LAYER:0
M107
G0 F6000 X101.584 Y109.128 Z0.2
;TYPE:SKIRT
G1 F2700 E0
G1 F900 X103.161 Y108.212 E0.06066
G1 X104.055 Y107.833 E0.09295
G1 X106.31 Y107.564 E0.16849
G1 X127.648 Y107.648 E0.8782
G1 X129.055 Y107.904 E0.92576
G1 X129.508 Y108.037 E0.94147
G1 X131.275 Y108.788 E1.00532
G1 X132.372 Y109.411 E1.04728
G1 X134.073 Y110.965 E1.12391
G1 X134.839 Y112.07 E1.16863
G1 X135.575 Y113.417 E1.21969
G1 X136.065 Y114.689 E1.26502
G1 X136.298 Y115.623 E1.29704
G1 X136.47 Y116.915 E1.34039
G1 X136.5 Y120.462 E1.45837
G1 X136.049 Y122.362 E1.52332
G1 X134.985 Y124.418 E1.60032
G1 X133.39 Y125.898 E1.67269
G1 X131.409 Y127.079 E1.7494
G1 X129.677 Y127.361 E1.80776
G1 X109.479 Y127.433 E2.47955
G1 X108.259 Y127.351 E2.52022
G1 X107.578 Y127.242 E2.54316
G1 X106.014 Y126.833 E2.59693
G1 X105.074 Y126.468 E2.63047
G1 X104.418 Y126.148 E2.65474
G1 X103.451 Y125.57 E2.69221
G1 X102.496 Y124.866 E2.73168
G1 X102.114 Y124.531 E2.74857
G1 X101.1 Y123.477 E2.79722
G1 X100.751 Y123.04 E2.81582
G1 X99.953 Y121.816 E2.86442
G1 X99.508 Y120.952 E2.89674
G1 X99.162 Y120.106 E2.92714
G1 X98.875 Y119.195 E2.95891
G1 X98.66 Y118.188 E2.99316
G1 X98.514 Y116.992 E3.03323
G1 X98.5 Y116.687 E3.04339
G1 X98.5 Y114.512 E3.11573
G1 X98.966 Y112.616 E3.18067
G1 X100.021 Y110.573 E3.25714
G1 X101.584 Y109.128 E3.32794
G0 F6000 X101.826 Y109.45
G1 F900 X103.317 Y108.58 E3.38536
G1 X104.158 Y108.223 E3.41574
G1 X106.309 Y107.964 E3.4878
G1 X127.576 Y108.042 E4.19515
G1 X128.983 Y108.298 E4.24272
G1 X129.352 Y108.405 E4.2555
G1 X131.077 Y109.136 E4.31781
G1 X132.137 Y109.738 E4.35835
G1 X133.769 Y111.229 E4.43188
G1 X134.51 Y112.298 E4.47514
G1 X135.202 Y113.562 E4.52307
G1 X135.677 Y114.787 E4.56677
G1 X135.901 Y115.676 E4.59726
G1 X136.073 Y116.968 E4.64061
G1 X136.1 Y120.418 E4.75536
G1 X135.672 Y122.221 E4.817
G1 X134.662 Y124.172 E4.89007
G1 X133.151 Y125.574 E4.95862
G1 X131.269 Y126.696 E5.0315
G1 X129.613 Y126.966 E5.0873
G1 X109.478 Y127.033 E5.757
G1 X108.321 Y126.956 E5.79557
G1 X107.679 Y126.855 E5.81718
G1 X106.158 Y126.46 E5.86945
G1 X105.249 Y126.108 E5.90187
G1 X104.593 Y125.788 E5.92615
G1 X103.688 Y125.248 E5.9612
G1 X102.76 Y124.565 E5.99952
G1 X102.378 Y124.23 E6.01642
G1 X101.413 Y123.227 E6.06272
G1 X101.064 Y122.79 E6.08132
G1 X100.309 Y121.633 E6.12727
G1 X99.864 Y120.769 E6.15959
G1 X99.544 Y119.986 E6.18772
G1 X99.257 Y119.075 E6.21949
G1 X99.057 Y118.139 E6.25133
G1 X98.914 Y116.974 E6.29037
G1 X98.9 Y116.669 E6.30052
G1 X98.9 Y114.558 E6.37073
G1 X99.342 Y112.759 E6.43235
G1 X100.343 Y110.821 E6.5049
G1 X101.826 Y109.45 E6.57207
G0 F6000 X102.065 Y109.774
G1 F900 X103.519 Y108.926 E6.62805
G1 X104.263 Y108.613 E6.6549
G1 X106.308 Y108.364 E6.72342
G1 X127.504 Y108.436 E7.4284
G1 X128.911 Y108.692 E7.47597
G1 X129.239 Y108.789 E7.48735
G1 X130.879 Y109.484 E7.54659
G1 X131.902 Y110.065 E7.58572
G1 X133.465 Y111.493 E7.65613
G1 X134.181 Y112.526 E7.69794
G1 X134.829 Y113.707 E7.74274
G1 X135.304 Y114.932 E7.78644
G1 X135.504 Y115.729 E7.81377
G1 X135.676 Y117.021 E7.85712
G1 X135.7 Y120.374 E7.96865
G1 X135.295 Y122.08 E8.02697
G1 X134.339 Y123.926 E8.09611
G1 X132.912 Y125.25 E8.16085
G1 X131.129 Y126.313 E8.2299
G1 X129.549 Y126.571 E8.28314
G1 X109.477 Y126.633 E8.95074
G1 X108.382 Y126.561 E8.98724
G1 X107.779 Y126.468 E9.00754
G1 X106.302 Y126.087 E9.05827
G1 X105.424 Y125.748 E9.08957
G1 X104.797 Y125.444 E9.11275
G1 X103.925 Y124.926 E9.14648
G1 X103.024 Y124.264 E9.18367
G1 X102.642 Y123.929 E9.20057
G1 X101.726 Y122.977 E9.24451
G1 X101.377 Y122.54 E9.26311
G1 X100.665 Y121.45 E9.30641
G1 X100.22 Y120.586 E9.33874
G1 X99.926 Y119.866 E9.3646
G1 X99.639 Y118.955 E9.39637
G1 X99.454 Y118.09 E9.42579
G1 X99.314 Y116.956 E9.4638
G1 X99.3 Y116.651 E9.47395
G1 X99.3 Y114.605 E9.542
G1 X99.719 Y112.901 E9.60036
G1 X100.665 Y111.069 E9.66894
G1 X102.065 Y109.774 E9.73237
G0 F6000 X102.307 Y110.096
G1 F900 X103.674 Y109.295 E9.78507
G1 X104.368 Y109.003 E9.81011
G1 X106.307 Y108.764 E9.87509
G1 X127.433 Y108.83 E10.57775
G1 X128.798 Y109.076 E10.62388
G1 X129.126 Y109.173 E10.63526
G1 X130.681 Y109.832 E10.69143
G1 X131.667 Y110.392 E10.72914
G1 X133.161 Y111.757 E10.79645
G1 X133.852 Y112.754 E10.8368
G1 X134.456 Y113.852 E10.87848
G1 X134.916 Y115.031 E10.92057
G1 X135.107 Y115.782 E10.94634
G1 X135.279 Y117.074 E10.98969
G1 X135.3 Y120.33 E11.09799
G1 X134.918 Y121.939 E11.15299
G1 X134.016 Y123.68 E11.21821
G1 X132.673 Y124.926 E11.27914
G1 X130.989 Y125.93 E11.34435
G1 X129.484 Y126.176 E11.39507
G1 X109.476 Y126.233 E12.06054
G1 X108.409 Y126.162 E12.09611
G1 X107.878 Y126.081 E12.11398
G1 X106.446 Y125.714 E12.16314
G1 X105.599 Y125.388 E12.19333
G1 X104.972 Y125.084 E12.21651
G1 X104.161 Y124.603 E12.24787
G1 X103.288 Y123.963 E12.28387
G1 X102.906 Y123.628 E12.30077
G1 X102.039 Y122.727 E12.34236
G1 X101.69 Y122.29 E12.36096
G1 X101.021 Y121.267 E12.40161
G1 X100.576 Y120.403 E12.43394
G1 X100.308 Y119.746 E12.45754
G1 X100.021 Y118.835 E12.48931
G1 X99.851 Y118.041 E12.51631
G1 X99.714 Y116.938 E12.55328
G1 X99.7 Y116.633 E12.56344
G1 X99.7 Y114.651 E12.62936
G1 X100.095 Y113.044 E12.6844
G1 X100.987 Y111.317 E12.74905
G1 X102.307 Y110.096 E12.80885
G0 F6000 X102.548 Y110.419
G1 F900 X103.829 Y109.664 E12.85831
G1 X104.472 Y109.393 E12.88152
G1 X106.306 Y109.164 E12.94299
G1 X127.432 Y109.23 E13.64565
G1 X128.685 Y109.46 E13.68802
G1 X129.013 Y109.557 E13.69939
G1 X130.483 Y110.18 E13.7525
G1 X131.432 Y110.719 E13.7888
G1 X132.857 Y112.021 E13.853
G1 X133.523 Y112.982 E13.89188
G1 X134.084 Y113.998 E13.93049
G1 X134.529 Y115.131 E13.97097
G1 X134.71 Y115.835 E13.99515
G1 X134.882 Y117.127 E14.0385
G1 X134.9 Y120.285 E14.14354
G1 X134.54 Y121.799 E14.1953
G1 X133.693 Y123.434 E14.25654
G1 X132.434 Y124.602 E14.31366
G1 X130.849 Y125.547 E14.37504
G1 X129.419 Y125.781 E14.42323
G1 X109.475 Y125.833 E15.08657
G1 X108.468 Y125.766 E15.12014
G1 X107.977 Y125.693 E15.13665
G1 X106.589 Y125.34 E15.18428
G1 X105.774 Y125.028 E15.21331
G1 X105.147 Y124.724 E15.23649
G1 X104.397 Y124.28 E15.26547
G1 X103.552 Y123.662 E15.30029
G1 X103.17 Y123.327 E15.31719
G1 X102.352 Y122.477 E15.35643
G1 X102.003 Y122.04 E15.37503
G1 X101.377 Y121.084 E15.41304
G1 X100.932 Y120.22 E15.44536
G1 X100.69 Y119.626 E15.46669
G1 X100.403 Y118.715 E15.49846
G1 X100.248 Y117.991 E15.52309
G1 X100.114 Y116.92 E15.55899
G1 X100.1 Y116.615 E15.56914
G1 X100.1 Y114.697 E15.63294
G1 X100.471 Y113.187 E15.68465
G1 X101.309 Y111.565 E15.74538
G1 X102.548 Y110.419 E15.80151
G0 F6000 X102.789 Y110.741
G1 F900 X104.032 Y110.009 E15.84949
G1 X104.575 Y109.783 E15.86905
G1 X106.305 Y109.564 E15.92705
G1 X127.361 Y109.624 E16.62738
G1 X128.572 Y109.844 E16.66831
G1 X128.9 Y109.941 E16.67969
G1 X130.285 Y110.528 E16.72972
G1 X131.197 Y111.046 E16.76461
G1 X132.553 Y112.285 E16.8257
G1 X133.194 Y113.21 E16.86313
G1 X133.712 Y114.145 E16.89868
G1 X134.142 Y115.232 E16.93756
G1 X134.313 Y115.888 E16.96011
G1 X134.485 Y117.18 E17.00346
G1 X134.5 Y120.24 E17.10524
G1 X134.163 Y121.658 E17.15371
G1 X133.37 Y123.188 E17.21103
G1 X132.195 Y124.278 E17.26434
G1 X130.709 Y125.164 E17.32188
G1 X129.354 Y125.386 E17.36755
G1 X109.474 Y125.433 E18.02876
G1 X108.527 Y125.37 E18.06033
G1 X108.036 Y125.297 E18.07684
G1 X106.731 Y124.966 E18.12162
G1 X105.949 Y124.668 E18.14945
G1 X105.322 Y124.364 E18.17263
G1 X104.633 Y123.957 E18.19925
G1 X103.816 Y123.361 E18.23288
G1 X103.434 Y123.026 E18.24978
G1 X102.665 Y122.227 E18.28666
G1 X102.316 Y121.79 E18.30526
G1 X101.732 Y120.9 E18.34067
G1 X101.302 Y120.069 E18.37179
G1 X101.072 Y119.506 E18.39202
G1 X100.785 Y118.595 E18.42379
G1 X100.645 Y117.941 E18.44603
G1 X100.514 Y116.902 E18.48086
G1 X100.5 Y116.597 E18.49102
G1 X100.5 Y114.744 E18.55265
G1 X100.848 Y113.329 E18.60111
G1 X101.631 Y111.813 E18.65786
G1 X102.789 Y110.741 E18.71035
G0 F6000 X103.027 Y111.065
G1 F900 X104.235 Y110.354 E18.75697
G1 X104.676 Y110.174 E18.77281
G1 X106.304 Y109.964 E18.82741
G1 X127.29 Y110.018 E19.52541
G1 X128.459 Y110.228 E19.56491
G1 X128.787 Y110.325 E19.57629
G1 X130.087 Y110.876 E19.62325
G1 X130.962 Y111.373 E19.65672
G1 X132.249 Y112.549 E19.7147
G1 X132.865 Y113.438 E19.75068
G1 X133.34 Y114.293 E19.78321
G1 X133.755 Y115.335 E19.82051
G1 X133.916 Y115.941 E19.84137
G1 X134.088 Y117.233 E19.88472
G1 X134.1 Y120.195 E19.98324
G1 X133.786 Y121.517 E20.02843
G1 X133.047 Y122.942 E20.08182
G1 X131.956 Y123.954 E20.13131
G1 X130.569 Y124.781 E20.18502
G1 X129.289 Y124.991 E20.22817
G1 X109.473 Y125.033 E20.88725
G1 X108.584 Y124.974 E20.91688
G1 X108.134 Y124.909 E20.93201
G1 X106.873 Y124.592 E20.97525
G1 X106.123 Y124.308 E21.00192
G1 X105.525 Y124.019 E21.02402
G1 X104.868 Y123.633 E21.04936
G1 X104.08 Y123.06 E21.08177
G1 X103.698 Y122.725 E21.09866
G1 X102.978 Y121.977 E21.1332
G1 X102.629 Y121.54 E21.1518
G1 X102.067 Y120.681 E21.18594
G1 X101.672 Y119.917 E21.21454
G1 X101.454 Y119.386 E21.23364
G1 X101.167 Y118.475 E21.2654
G1 X101.042 Y117.891 E21.28527
G1 X100.914 Y116.884 E21.31903
G1 X100.9 Y116.579 E21.32919
G1 X100.9 Y114.79 E21.38869
G1 X101.224 Y113.472 E21.43383
G1 X101.954 Y112.059 E21.48673
G1 X103.027 Y111.065 E21.53538
G0 F6000 X103.265 Y111.389
G1 F900 X104.438 Y110.699 E21.58064
G1 X104.777 Y110.565 E21.59276
G1 X106.303 Y110.364 E21.64396
G1 X127.22 Y110.412 E22.33966
G1 X128.346 Y110.612 E22.3777
G1 X128.674 Y110.709 E22.38907
G1 X129.889 Y111.224 E22.43297
G1 X130.727 Y111.7 E22.46502
G1 X131.945 Y112.813 E22.5199
G1 X132.536 Y113.666 E22.55441
G1 X132.969 Y114.442 E22.58397
G1 X133.368 Y115.438 E22.61965
G1 X133.529 Y116.044 E22.64051
G1 X133.688 Y117.235 E22.68047
G1 X133.7 Y120.149 E22.77739
G1 X133.408 Y121.377 E22.81938
G1 X132.724 Y122.696 E22.8688
G1 X131.717 Y123.63 E22.91448
G1 X130.429 Y124.398 E22.96435
G1 X129.224 Y124.596 E23.00497
G1 X109.472 Y124.633 E23.66192
G1 X108.641 Y124.578 E23.68962
G1 X108.191 Y124.513 E23.70475
G1 X107.014 Y124.218 E23.7451
G1 X106.297 Y123.948 E23.77059
G1 X105.728 Y123.674 E23.79159
G1 X105.071 Y123.288 E23.81694
G1 X104.344 Y122.759 E23.84684
G1 X103.962 Y122.424 E23.86374
G1 X103.291 Y121.727 E23.89592
G1 X102.942 Y121.29 E23.91452
G1 X102.422 Y120.497 E23.94606
G1 X102.042 Y119.764 E23.97352
G1 X101.836 Y119.266 E23.99145
G1 X101.549 Y118.355 E24.02321
G1 X101.439 Y117.84 E24.04073
G1 X101.314 Y116.866 E24.07339
G1 X101.3 Y116.561 E24.08354
G1 X101.3 Y114.836 E24.14092
G1 X101.6 Y113.615 E24.18274
G1 X102.277 Y112.305 E24.23178
G1 X103.265 Y111.389 E24.27659
G0 F6000 X103.505 Y111.712
G1 F900 X104.585 Y111.071 E24.31836
G1 X104.88 Y110.954 E24.32892
G1 X106.302 Y110.764 E24.37664
G1 X127.151 Y110.806 E25.07008
G1 X128.233 Y110.996 E25.10662
G1 X128.561 Y111.093 E25.11799
G1 X129.691 Y111.572 E25.15881
G1 X130.492 Y112.027 E25.18945
G1 X131.641 Y113.077 E25.24122
G1 X132.207 Y113.894 E25.27428
G1 X132.619 Y114.636 E25.30251
G1 X132.981 Y115.541 E25.33493
G1 X133.142 Y116.147 E25.35578
G1 X133.288 Y117.237 E25.39236
G1 X133.3 Y120.104 E25.48772
G1 X133.031 Y121.236 E25.52642
G1 X132.401 Y122.45 E25.57191
G1 X131.478 Y123.306 E25.61378
G1 X130.289 Y124.015 E25.65982
G1 X129.159 Y124.201 E25.69791
G1 X109.471 Y124.233 E26.35274
G1 X108.698 Y124.182 E26.3785
G1 X108.248 Y124.117 E26.39362
G1 X107.154 Y123.843 E26.43113
G1 X106.47 Y123.587 E26.45543
G1 X105.931 Y123.329 E26.4753
G1 X105.274 Y122.943 E26.50064
G1 X104.608 Y122.458 E26.52805
G1 X104.226 Y122.123 E26.54495
G1 X103.604 Y121.477 E26.57477
G1 X103.255 Y121.04 E26.59337
G1 X102.777 Y120.312 E26.62234
G1 X102.412 Y119.611 E26.64863
G1 X102.206 Y119.113 E26.66655
G1 X101.94 Y118.271 E26.69592
G1 X101.836 Y117.789 E26.71232
G1 X101.714 Y116.848 E26.74388
G1 X101.7 Y116.543 E26.75404
G1 X101.7 Y114.882 E26.80928
G1 X101.976 Y113.758 E26.84778
G1 X102.6 Y112.551 E26.89297
G1 X103.505 Y111.712 E26.93401
G0 F6000 X103.746 Y112.033
G1 F900 X104.733 Y111.443 E26.97226
G1 X104.985 Y111.343 E26.98128
G1 X106.301 Y111.164 E27.02545
G1 X127.083 Y111.2 E27.71666
G1 X128.12 Y111.38 E27.75167
G1 X128.448 Y111.477 E27.76305
G1 X129.493 Y111.92 E27.8008
G1 X130.257 Y112.354 E27.83002
G1 X131.337 Y113.341 E27.87868
G1 X131.878 Y114.122 E27.91028
G1 X132.248 Y114.785 E27.93554
G1 X132.594 Y115.644 E27.96634
G1 X132.755 Y116.25 E27.98719
G1 X132.888 Y117.239 E28.02038
G1 X132.9 Y120.058 E28.11414
G1 X132.653 Y121.096 E28.14963
G1 X132.078 Y122.204 E28.19115
G1 X131.239 Y122.982 E28.22921
G1 X130.149 Y123.632 E28.27142
G1 X129.094 Y123.806 E28.30698
G1 X109.47 Y123.833 E28.95968
G1 X108.755 Y123.786 E28.98351
G1 X108.305 Y123.721 E28.99863
G1 X107.293 Y123.468 E29.03333
G1 X106.642 Y123.226 E29.05643
G1 X106.134 Y122.984 E29.07514
G1 X105.477 Y122.598 E29.10049
G1 X104.872 Y122.157 E29.12539
G1 X104.49 Y121.822 E29.14229
G1 X103.917 Y121.227 E29.16976
G1 X103.568 Y120.79 E29.18836
G1 X103.112 Y120.093 E29.21607
G1 X102.782 Y119.458 E29.23987
G1 X102.576 Y118.96 E29.25779
G1 X102.331 Y118.186 E29.2848
G1 X102.233 Y117.737 E29.30008
G1 X102.114 Y116.83 E29.33051
G1 X102.1 Y116.525 E29.34066
G1 X102.1 Y114.928 E29.39378
G1 X102.352 Y113.901 E29.42895
G1 X102.923 Y112.797 E29.47029
G1 X103.746 Y112.033 E29.50764
G0 F6000 X103.988 Y112.354
G1 F900 X104.938 Y111.786 E29.54445
G1 X105.087 Y111.733 E29.54971
G1 X106.3 Y111.564 E29.59045
G1 X127.015 Y111.594 E30.27943
G1 X128.007 Y111.764 E30.31291
G1 X128.335 Y111.861 E30.32428
G1 X129.295 Y112.268 E30.35896
G1 X130.022 Y112.681 E30.38677
G1 X131.033 Y113.605 E30.43233
G1 X131.549 Y114.35 E30.46247
G1 X131.898 Y114.979 E30.48639
G1 X132.207 Y115.747 E30.51393
G1 X132.368 Y116.353 E30.53478
G1 X132.488 Y117.241 E30.56459
G1 X132.5 Y120.012 E30.65675
G1 X132.275 Y120.956 E30.68903
G1 X131.755 Y121.958 E30.72657
G1 X131 Y122.658 E30.76082
G1 X130.009 Y123.249 E30.7992
G1 X129.029 Y123.411 E30.83223
G1 X109.47 Y123.433 E31.48277
G1 X108.812 Y123.39 E31.5047
G1 X108.362 Y123.325 E31.51982
G1 X107.432 Y123.093 E31.5517
G1 X106.813 Y122.864 E31.57365
G1 X106.337 Y122.639 E31.59117
G1 X105.68 Y122.253 E31.61651
G1 X105.136 Y121.856 E31.63891
G1 X104.754 Y121.521 E31.65581
G1 X104.23 Y120.977 E31.68093
G1 X103.881 Y120.54 E31.69953
G1 X103.467 Y119.908 E31.72466
G1 X103.152 Y119.305 E31.74729
G1 X102.946 Y118.807 E31.76521
G1 X102.722 Y118.099 E31.78991
G1 X102.63 Y117.684 E31.80405
G1 X102.514 Y116.812 E31.83331
G1 X102.5 Y116.507 E31.84346
G1 X102.5 Y114.974 E31.89445
G1 X102.728 Y114.044 E31.9263
G1 X103.246 Y113.042 E31.96381
G1 X103.988 Y112.354 E31.99747
G0 F6000 X104.23 Y112.675
G1 F900 X105.143 Y112.129 E32.03285
G1 X106.3 Y111.964 E32.07172
G1 X126.948 Y111.988 E32.75848
G1 X127.894 Y112.148 E32.79039
G1 X128.222 Y112.245 E32.80177
G1 X129.097 Y112.616 E32.83338
G1 X129.787 Y113.008 E32.85977
G1 X130.731 Y113.871 E32.90231
G1 X131.199 Y114.544 E32.92958
G1 X131.548 Y115.173 E32.9535
G1 X131.82 Y115.85 E32.97777
G1 X131.981 Y116.456 E32.99862
G1 X132.088 Y117.243 E33.02504
G1 X132.1 Y119.966 E33.11561
G1 X131.897 Y120.816 E33.14467
G1 X131.432 Y121.712 E33.17825
G1 X130.761 Y122.334 E33.20868
G1 X129.869 Y122.866 E33.24322
G1 X128.964 Y123.016 E33.27374
G1 X109.47 Y123.033 E33.92211
G1 X108.869 Y122.994 E33.94214
G1 X108.419 Y122.929 E33.95726
G1 X107.57 Y122.718 E33.98636
G1 X106.984 Y122.502 E34.00713
G1 X106.508 Y122.277 E34.02464
