; musical_slicer_printrbot.py — Printrbot Plus (A4988 drivers, PLA)
; steppers play zelda-simple.mid while printing triforce.stl
M201 X2000 Y2000   ; accel = machine max
M204 S3000
M205 X20.00                ; XY jerk (single-axis form for old Marlin V1)
M140 S60
M190 S60
M104 S200
M109 S200
M107                       ; fan off — let the music be heard
G28
G92 E0
G1 Z2.0 F120
G1 X5 Y20 Z0.3 F3000
G1 X5 Y200 Z0.3 F1200 E15  ; prime line
G1 X5.4 Y200 Z0.3 F3000
G1 X5.4 Y20 Z0.3 F1200 E30
G92 E0
G1 Z2.0 F120

G1 Z0.200 F120
G1 X7.077 Y22.388 F424
G1 X7.137 Y22.474 F1800
G1 X7.687 Y23.256 F424
G1 X7.747 Y23.342 F1800
G1 X8.296 Y24.124 F424
G1 X8.356 Y24.209 F1800
G1 X8.906 Y24.992 F424
G1 X8.966 Y25.077 F1800
G1 X10.220 Y26.864 F424
G1 X10.280 Y26.949 F1800
G1 X10.689 Y27.531 F424
G1 X10.748 Y27.616 F1800
G1 X11.298 Y28.399 F424
G1 X11.358 Y28.484 F1800
G1 X11.908 Y29.267 F424
G1 X11.967 Y29.352 F1800
G1 X12.517 Y30.135 F424
G1 X12.577 Y30.220 F1800
G1 X13.704 Y31.826 F424
G1 X14.194 Y32.523 F378
G1 X14.254 Y32.608 F1800
G1 X15.931 Y34.996 F424
G1 X15.991 Y35.082 F1800
G1 X17.109 Y36.673 F378
G1 X17.168 Y36.758 F1800
G1 X17.577 Y37.340 F424
G1 X17.637 Y37.426 F1800
G1 X18.187 Y38.208 F424
G1 X18.247 Y38.294 F1800
G1 X18.796 Y39.076 F424
G1 X18.856 Y39.162 F1800
G1 X19.406 Y39.944 F424
G1 X19.466 Y40.029 F1800
G1 X20.523 Y41.535 F424
G1 X20.822 Y41.961 F1800
G1 X21.312 Y42.658 F378
G1 X21.372 Y42.744 F1800
G1 X23.049 Y45.132 F424
G1 X23.109 Y45.217 F1800
G1 X24.104 Y46.635 F336
G1 X24.164 Y46.720 F1800
G1 X24.573 Y47.302 F424
G1 X24.633 Y47.387 F1800
G1 X25.182 Y48.170 F424
G1 X25.242 Y48.255 F1800
G1 X25.792 Y49.038 F424
G1 X25.852 Y49.123 F1800
G1 X26.401 Y49.906 F424
G1 X26.461 Y49.991 F1800
G1 X27.293 Y51.175 F424
G1 X27.353 Y51.261 F1800
G1 X27.659 Y51.697 F317
G1 X27.719 Y51.782 F1800
G1 X28.025 Y52.218 F317
G1 X28.085 Y52.303 F1800
G1 X28.708 Y53.190 F317
G1 X28.767 Y53.275 F1800
G1 X29.074 Y53.711 F317
G1 X29.134 Y53.797 F1800
G1 X29.440 Y54.233 F317
G1 X29.500 Y54.318 F1800
G1 X30.123 Y55.205 F317
G1 X30.182 Y55.290 F1800
G1 X30.489 Y55.726 F317
G1 X30.548 Y55.812 F1800
G1 X30.855 Y56.248 F317
G1 X30.915 Y56.333 F1800
G1 X31.537 Y57.220 F317
G1 X31.597 Y57.305 F1800
G1 X32.220 Y58.192 F317
G1 X32.280 Y58.277 F1800
G1 X33.957 Y60.666 F424
G1 X34.017 Y60.751 F1800
G1 X35.274 Y62.540 F317
G1 X35.333 Y62.625 F1800
G1 X36.165 Y63.810 F424
G1 X36.225 Y63.895 F1800
G1 X37.056 Y65.079 F424
G1 X37.116 Y65.164 F1800
G1 X37.525 Y65.746 F424
G1 X37.585 Y65.831 F1800
G1 X38.044 Y66.485 F476
G1 X38.104 Y66.570 F1800
G1 X38.618 Y67.303 F534
G1 X38.678 Y67.389 F1800
G1 X39.224 Y68.165 F566
G1 X39.284 Y68.251 F1800
G1 X41.797 Y71.829 F635
G1 X41.857 Y71.914 F1800
G1 X42.346 Y72.612 F378
G1 X42.406 Y72.697 F1800
G1 X42.896 Y73.394 F378
G1 X42.956 Y73.479 F1800
G1 X43.392 Y74.101 F336
G1 X43.452 Y74.186 F1800
G1 X44.193 Y75.241 F378
G1 X44.252 Y75.326 F1800
G1 X45.498 Y77.100 F635
G1 X45.558 Y77.186 F1800
G1 X46.382 Y78.358 F635
G1 X46.442 Y78.444 F1800
G1 X47.314 Y79.686 F673
G1 X47.374 Y79.771 F1800
G1 X48.353 Y81.166 F755
G1 X48.413 Y81.251 F1800
G1 X50.076 Y83.619 F848
G1 X50.136 Y83.705 F1800
G1 X50.796 Y84.644 F336
G1 X50.856 Y84.730 F1800
G1 X51.180 Y85.192 F336
G1 X51.240 Y85.277 F1800
G1 X51.604 Y85.795 F378
G1 X51.664 Y85.881 F1800
G1 X52.073 Y86.463 F424
G1 X52.133 Y86.548 F1800
G1 X52.592 Y87.201 F476
G1 X52.652 Y87.286 F1800
G1 X53.640 Y88.695 F504
G1 X53.700 Y88.780 F1800
G1 X54.148 Y89.417 F336
G1 X55.345 Y91.122 F1800
G1 X56.444 Y92.687 F848
G1 X56.504 Y92.773 F1800
G1 X57.484 Y94.167 F755
G1 X57.543 Y94.253 F1800
G1 X58.416 Y95.495 F673
G1 X58.476 Y95.580 F1800
G1 X59.480 Y97.011 F755
G1 X59.780 Y97.437 F1800
G1 X60.350 Y98.248 F504
G1 X60.409 Y98.334 F1800
G1 X61.282 Y99.576 F673
G1 X61.342 Y99.661 F1800
G1 X63.221 Y102.338 F635
G1 X63.281 Y102.423 F1800
G1 X63.767 Y103.115 F504
G1 X63.827 Y103.200 F1800
G1 X65.084 Y104.990 F504
G1 X67.778 Y108.826 F1800
G1 X70.291 Y112.405 F635
G1 X70.351 Y112.490 F1800
G1 X70.896 Y113.267 F566
G1 X70.956 Y113.352 F1800
G1 X71.389 Y113.969 F449
G1 X71.449 Y114.054 F1800
G1 X71.995 Y114.831 F566
G1 X72.054 Y114.916 F1800
G1 X72.667 Y115.788 F635
G1 X72.727 Y115.874 F1800
G1 X74.494 Y118.390 F673
G1 X74.554 Y118.476 F1800
G1 X75.104 Y119.258 F424
G1 X75.164 Y119.344 F1800
G1 X76.940 Y121.874 F449
G1 X77.000 Y121.959 F1800
G1 X78.246 Y123.733 F635
G1 X78.306 Y123.819 F1800
G1 X79.416 Y125.399 F566
G1 X79.476 Y125.484 F1800
G1 X80.465 Y126.893 F504
G1 X80.525 Y126.978 F1800
G1 X81.011 Y127.670 F504
G1 X81.071 Y127.755 F1800
G1 X81.616 Y128.532 F566
G1 X81.676 Y128.617 F1800
G1 X83.344 Y130.993 F635
G1 X83.404 Y131.078 F1800
G1 X83.894 Y131.776 F378
G1 X83.954 Y131.861 F1800
G1 X85.631 Y134.249 F424
G1 X85.691 Y134.334 F1800
G1 X86.801 Y135.915 F566
G1 X86.860 Y136.000 F1800
G1 X87.849 Y137.408 F504
G1 X87.909 Y137.494 F1800
G1 X88.843 Y138.823 F476
G1 X88.902 Y138.908 F1800
G1 X89.361 Y139.561 F476
G1 X89.421 Y139.646 F1800
G1 X89.936 Y140.380 F534
G1 X89.996 Y140.465 F1800
G1 X91.571 Y142.707 F599
G1 X91.630 Y142.792 F1800
G1 X92.247 Y143.671 F476
G1 X92.307 Y143.756 F1800
G1 X93.241 Y145.085 F476
G1 X93.300 Y145.171 F1800
G1 X93.644 Y145.660 F356
G1 X93.704 Y145.745 F1800
G1 X94.090 Y146.295 F400
G1 X94.150 Y146.380 F1800
G1 X96.970 Y150.397 F713
G1 X97.030 Y150.482 F1800
G1 X98.261 Y152.234 F635
G1 X98.273 Y152.212 E0.00085 F600
G1 X98.325 Y152.122 E0.00431 F1800
G1 X98.577 Y151.686 E0.02106 F300
G1 X98.629 Y151.595 E0.02452 F1800
G1 X98.881 Y151.159 E0.04127 F300
G1 X98.933 Y151.069 E0.04473 F1800
G1 X99.445 Y150.182 E0.07880 F300
G1 X99.497 Y150.092 E0.08227 F1800
G1 X99.749 Y149.656 E0.09901 F300
G1 X99.801 Y149.566 E0.10248 F1800
G1 X100.053 Y149.130 E0.11922 F300
G1 X100.105 Y149.039 E0.12269 F1800
G1 X100.750 Y147.922 E0.16561 F378
G1 X100.802 Y147.832 E0.16907 F1800
G1 X101.054 Y147.396 E0.18582 F300
G1 X101.106 Y147.305 E0.18928 F1800
G1 X101.358 Y146.869 E0.20603 F300
G1 X101.410 Y146.779 E0.20950 F1800
G1 X101.922 Y145.892 E0.24356 F300
G1 X101.974 Y145.802 E0.24703 F1800
G1 X102.486 Y144.915 E0.28110 F300
G1 X102.538 Y144.825 E0.28456 F1800
G1 X103.917 Y142.436 E0.37629 F400
G1 X103.969 Y142.346 E0.37975 F1800
G1 X104.308 Y141.760 E0.40227 F300
G1 X104.360 Y141.669 E0.40574 F1800
G1 X104.812 Y140.887 E0.43580 F400
G1 X104.864 Y140.796 E0.43926 F1800
G1 X105.267 Y140.099 E0.46604 F357
G1 X105.319 Y140.009 E0.46951 F1800
G1 X106.002 Y138.825 E0.51498 F400
G1 X106.054 Y138.735 E0.51845 F1800
G1 X106.738 Y137.551 E0.56392 F400
G1 X106.790 Y137.460 E0.56739 F1800
G1 X107.126 Y136.878 E0.58974 F400
G1 X107.178 Y136.788 E0.59321 F1800
G1 X107.555 Y136.135 E0.61830 F449
G1 X107.607 Y136.045 E0.62176 F1800
G1 X108.031 Y135.311 E0.64992 F505
G1 X108.083 Y135.221 E0.65339 F1800
G1 X108.532 Y134.444 E0.68322 F535
G1 X108.584 Y134.354 E0.68669 F1800
G1 X109.087 Y133.482 E0.72018 F600
G1 X109.139 Y133.392 E0.72365 F1800
G1 X110.058 Y131.800 E0.78476 F357
G1 X110.110 Y131.710 E0.78823 F1800
G1 X110.513 Y131.013 E0.81501 F357
G1 X110.565 Y130.923 E0.81847 F1800
G1 X110.967 Y130.225 E0.84525 F357
G1 X111.019 Y130.135 E0.84872 F1800
G1 X111.378 Y129.514 E0.87258 F318
G1 X111.430 Y129.424 E0.87604 F1800
G1 X112.039 Y128.369 E0.91656 F357
G1 X112.091 Y128.278 E0.92002 F1800
G1 X113.116 Y126.504 E0.98816 F600
G1 X113.168 Y126.414 E0.99162 F1800
G1 X113.845 Y125.241 E1.03666 F600
G1 X113.897 Y125.151 E1.04013 F1800
G1 X114.614 Y123.909 E1.08785 F636
G1 X114.666 Y123.818 E1.09131 F1800
G1 X115.471 Y122.424 E1.14487 F714
G1 X115.524 Y122.334 E1.14834 F1800
G1 X118.281 Y117.557 E1.33178 F801
G1 X118.333 Y117.467 E1.33525 F1800
G1 X118.692 Y116.846 E1.35911 F318
G1 X118.744 Y116.755 E1.36257 F1800
G1 X119.103 Y116.134 E1.38643 F318
G1 X119.155 Y116.044 E1.38990 F1800
G1 X119.474 Y115.490 E1.41115 F283
G1 X119.527 Y115.400 E1.41462 F1800
G1 X120.621 Y113.505 E1.48742 F318
G1 X120.673 Y113.414 E1.49088 F1800
G1 X123.953 Y107.734 E1.70904 F952
G1 X124.005 Y107.644 E1.71250 F1800
G1 X127.100 Y102.282 E1.91842 F899
G1 X127.152 Y102.192 E1.92188 F1800
G1 X129.755 Y97.684 E2.09503 F756
G1 X129.807 Y97.593 E2.09850 F1800
G1 X130.840 Y95.804 E2.16721 F300
G1 X130.892 Y95.714 E2.17068 F1800
G1 X132.958 Y92.136 E2.30811 F600
G1 X133.010 Y92.045 E2.31157 F1800
G1 X133.562 Y91.090 E2.34828 F636
G1 X134.083 Y90.187 E2.38292 F1800
G1 X134.535 Y89.405 E2.41298 F400
G1 X134.587 Y89.315 E2.41645 F1800
G1 X135.124 Y88.384 E2.45220 F476
G1 X135.177 Y88.294 E2.45566 F1800
G1 X135.496 Y87.740 E2.47692 F283
G1 X135.548 Y87.650 E2.48038 F1800
G1 X136.000 Y86.867 E2.51044 F400
G1 X136.052 Y86.777 E2.51391 F1800
G1 X136.590 Y85.846 E2.54966 F476
G1 X136.642 Y85.756 E2.55312 F1800
G1 X137.617 Y84.067 E2.61798 F283
G1 X137.669 Y83.977 E2.62144 F1800
G1 X140.427 Y79.200 E2.80489 F801
G1 X140.479 Y79.110 E2.80836 F1800
G1 X143.082 Y74.602 E2.98151 F756
G1 X143.134 Y74.511 E2.98497 F1800
G1 X145.200 Y70.933 E3.12240 F600
G1 X145.252 Y70.843 E3.12587 F1800
G1 X146.285 Y69.054 E3.19458 F300
G1 X146.337 Y68.963 E3.19805 F1800
G1 X147.067 Y67.699 E3.24662 F600
G1 X147.067 Y67.698 E3.24664 F569
G1 X147.109 Y67.603 E3.25009 F569
G1 X147.131 Y67.501 E3.25357 F531
G1 X147.131 Y67.500 E3.25359 F520
G1 X147.131 Y67.396 E3.25705 F520
G1 X147.109 Y67.294 E3.26052 F531
G1 X147.109 Y67.294 E3.26055 F569
G1 X147.067 Y67.199 E3.26400 F569
G1 X147.067 Y67.198 E3.26402 F642
G1 X147.006 Y67.114 E3.26748 F642
G1 X147.005 Y67.114 E3.26750 F703
G1 X146.928 Y67.044 E3.27095 F703
G1 X146.927 Y67.044 E3.27098 F604
G1 X146.837 Y66.992 E3.27443 F604
G1 X146.738 Y66.960 E3.27791 F550
G1 X146.737 Y66.960 E3.27793 F526
G1 X146.634 Y66.949 E3.28138 F526
G1 X145.979 Y66.949 E3.30317 F523
G1 X145.266 Y66.949 E3.32689 F523
G1 X145.162 Y66.949 E3.33035 F1800
G1 X144.200 Y66.949 E3.36234 F554
G1 X143.158 Y66.949 E3.39698 F1800
G1 X142.371 Y66.949 E3.42317 F349
G1 X142.267 Y66.949 E3.42664 F1800
G1 X141.330 Y66.949 E3.45779 F415
G1 X141.226 Y66.949 E3.46125 F1800
G1 X140.669 Y66.949 E3.47977 F247
G1 X140.565 Y66.949 E3.48324 F1800
G1 X139.778 Y66.949 E3.50943 F349
G1 X139.673 Y66.949 E3.51289 F1800
G1 X138.737 Y66.949 E3.54404 F415
G1 X138.633 Y66.949 E3.54751 F1800
G1 X136.934 Y66.949 E3.60402 F247
G1 X136.829 Y66.949 E3.60748 F1800
G1 X132.024 Y66.949 E3.76732 F698
G1 X131.919 Y66.949 E3.77079 F1800
G1 X127.383 Y66.949 E3.92166 F659
G1 X127.279 Y66.949 E3.92512 F1800
G1 X126.099 Y66.949 E3.96437 F523
G1 X125.995 Y66.949 E3.96783 F1800
G1 X125.405 Y66.949 E3.98745 F261
G1 X125.301 Y66.949 E3.99092 F1800
G1 X124.711 Y66.949 E4.01054 F261
G1 X124.607 Y66.949 E4.01401 F1800
G1 X122.807 Y66.949 E4.07388 F261
G1 X122.703 Y66.949 E4.07734 F1800
G1 X119.675 Y66.949 E4.17804 F440
G1 X119.571 Y66.949 E4.18150 F1800
G1 X116.363 Y66.949 E4.28818 F466
G1 X116.259 Y66.949 E4.29165 F1800
G1 X115.425 Y66.949 E4.31940 F370
G1 X115.321 Y66.949 E4.32286 F1800
G1 X114.486 Y66.949 E4.35061 F370
G1 X114.382 Y66.949 E4.35408 F1800
G1 X113.595 Y66.949 E4.38027 F349
G1 X113.491 Y66.949 E4.38373 F1800
G1 X110.945 Y66.949 E4.46841 F370
G1 X110.841 Y66.949 E4.47187 F1800
G1 X107.026 Y66.949 E4.59874 F554
G1 X106.922 Y66.949 E4.60220 F1800
G1 X103.322 Y66.949 E4.72195 F523
G1 X103.218 Y66.949 E4.72541 F1800
G1 X102.281 Y66.949 E4.75656 F415
G1 X102.177 Y66.949 E4.76002 F1800
G1 X101.390 Y66.949 E4.78622 F349
G1 X101.285 Y66.949 E4.78968 F1800
G1 X100.584 Y66.949 E4.81302 F311
G1 X100.480 Y66.949 E4.81648 F1800
G1 X98.077 Y66.949 E4.89640 F349
G1 X97.973 Y66.949 E4.89987 F1800
G1 X95.570 Y66.949 E4.97979 F349
G1 X95.466 Y66.949 E4.98325 F1800
G1 X94.128 Y66.949 E5.02773 F392
G1 X94.024 Y66.949 E5.03119 F1800
G1 X93.367 Y66.949 E5.05305 F392
G1 X93.263 Y66.949 E5.05652 F1800
G1 X92.525 Y66.949 E5.08106 F440
G1 X92.421 Y66.949 E5.08452 F1800
G1 X89.023 Y66.949 E5.19755 F493
G1 X88.918 Y66.949 E5.20101 F1800
G1 X87.581 Y66.949 E5.24549 F392
G1 X87.477 Y66.949 E5.24895 F1800
G1 X86.985 Y66.949 E5.26533 F293
G1 X86.880 Y66.949 E5.26880 F1800
G1 X86.328 Y66.949 E5.28718 F329
G1 X86.223 Y66.949 E5.29064 F1800
G1 X84.220 Y66.949 E5.35728 F587
G1 X84.116 Y66.949 E5.36075 F1800
G1 X82.778 Y66.949 E5.40523 F392
G1 X82.674 Y66.949 E5.40869 F1800
G1 X80.889 Y66.949 E5.46806 F523
G1 X80.785 Y66.949 E5.47152 F1800
G1 X80.346 Y66.949 E5.48612 F261
G1 X80.242 Y66.949 E5.48958 F1800
G1 X79.804 Y66.949 E5.50417 F261
G1 X79.699 Y66.949 E5.50764 F1800
G1 X78.807 Y66.949 E5.53732 F261
G1 X78.703 Y66.949 E5.54078 F1800
G1 X78.264 Y66.949 E5.55538 F261
G1 X78.160 Y66.949 E5.55884 F1800
G1 X77.721 Y66.949 E5.57343 F261
G1 X77.617 Y66.949 E5.57690 F1800
G1 X76.493 Y66.949 E5.61430 F329
G1 X76.388 Y66.949 E5.61776 F1800
G1 X75.950 Y66.949 E5.63235 F261
G1 X75.846 Y66.949 E5.63582 F1800
G1 X75.407 Y66.949 E5.65041 F261
G1 X75.303 Y66.949 E5.65387 F1800
G1 X74.301 Y66.949 E5.68719 F293
G1 X74.197 Y66.949 E5.69066 F1800
G1 X73.053 Y66.949 E5.72869 F329
G1 X70.650 Y66.949 E5.80861 F349
G1 X70.546 Y66.949 E5.81208 F1800
G1 X69.759 Y66.949 E5.83827 F349
G1 X69.654 Y66.949 E5.84173 F1800
G1 X68.867 Y66.949 E5.86793 F349
G1 X68.763 Y66.949 E5.87139 F1800
G1 X67.975 Y66.949 E5.89758 F349
G1 X67.871 Y66.949 E5.90105 F1800
G1 X66.074 Y66.949 E5.96082 F349
G1 X65.970 Y66.949 E5.96428 F1800
G1 X65.384 Y66.949 E5.98376 F349
G1 X65.280 Y66.949 E5.98723 F1800
G1 X64.493 Y66.949 E6.01342 F349
G1 X64.388 Y66.949 E6.01688 F1800
G1 X63.601 Y66.949 E6.04307 F349
G1 X63.497 Y66.949 E6.04654 F1800
G1 X62.709 Y66.949 E6.07273 F349
G1 X62.605 Y66.949 E6.07620 F1800
G1 X60.990 Y66.949 E6.12992 F349
G1 X60.288 Y66.949 E6.15326 F311
G1 X60.184 Y66.949 E6.15672 F1800
G1 X57.781 Y66.949 E6.23664 F349
G1 X57.677 Y66.949 E6.24011 F1800
G1 X56.076 Y66.949 E6.29336 F311
G1 X55.972 Y66.949 E6.29682 F1800
G1 X55.386 Y66.949 E6.31630 F349
G1 X55.282 Y66.949 E6.31977 F1800
G1 X54.494 Y66.949 E6.34596 F349
G1 X54.390 Y66.949 E6.34942 F1800
G1 X53.603 Y66.949 E6.37562 F349
G1 X53.499 Y66.949 E6.37908 F1800
G1 X52.711 Y66.949 E6.40527 F349
G1 X52.607 Y66.949 E6.40874 F1800
G1 X51.092 Y66.949 E6.45911 F349
G1 X50.572 Y66.949 E6.47643 F1800
G1 X49.870 Y66.949 E6.49976 F311
G1 X49.766 Y66.949 E6.50323 F1800
G1 X48.366 Y66.949 E6.54979 F349
G1 X48.365 Y66.949 E6.54981 F351
G1 X48.262 Y66.960 E6.55326 F351
G1 X48.261 Y66.960 E6.55329 F367
G1 X48.163 Y66.992 E6.55674 F367
G1 X48.162 Y66.992 E6.55676 F403
G1 X48.072 Y67.044 E6.56022 F403
G1 X48.072 Y67.045 E6.56024 F470
G1 X47.994 Y67.114 E6.56369 F470
G1 X47.994 Y67.115 E6.56372 F429
G1 X47.933 Y67.199 E6.56717 F429
G1 X47.890 Y67.294 E6.57065 F380
G1 X47.890 Y67.295 E6.57067 F355
G1 X47.869 Y67.396 E6.57412 F355
G1 X47.869 Y67.397 E6.57415 F347
G1 X47.869 Y67.501 E6.57760 F347
G1 X47.869 Y67.502 E6.57762 F355
G1 X47.890 Y67.603 E6.58108 F355
G1 X47.891 Y67.604 E6.58110 F380
G1 X47.933 Y67.699 E6.58455 F380
G1 X47.958 Y67.742 E6.58621 F400
G1 X48.010 Y67.832 E6.58967 F1800
G1 X48.261 Y68.266 E6.60634 F318
G1 X48.829 Y69.250 E6.64412 F318
G1 X48.881 Y69.340 E6.64759 F1800
G1 X49.217 Y69.922 E6.66994 F400
G1 X49.269 Y70.012 E6.67340 F1800
G1 X49.721 Y70.795 E6.70346 F400
G1 X49.773 Y70.885 E6.70693 F1800
G1 X50.225 Y71.668 E6.73699 F400
G1 X50.277 Y71.758 E6.74045 F1800
G1 X50.729 Y72.541 E6.77052 F400
G1 X50.781 Y72.631 E6.77398 F1800
G1 X51.464 Y73.815 E6.81946 F400
G1 X51.516 Y73.905 E6.82292 F1800
G1 X51.768 Y74.341 E6.83967 F300
G1 X51.820 Y74.432 E6.84313 F1800
G1 X52.072 Y74.868 E6.85988 F300
G1 X52.124 Y74.958 E6.86334 F1800
G1 X52.636 Y75.845 E6.89741 F300
G1 X52.688 Y75.935 E6.90087 F1800
G1 X52.940 Y76.371 E6.91762 F300
G1 X52.992 Y76.461 E6.92108 F1800
G1 X53.244 Y76.897 E6.93783 F300
G1 X53.296 Y76.988 E6.94130 F1800
G1 X53.808 Y77.875 E6.97536 F300
G1 X53.860 Y77.965 E6.97883 F1800
G1 X54.112 Y78.401 E6.99557 F300
G1 X54.164 Y78.491 E6.99904 F1800
G1 X54.416 Y78.927 E7.01578 F300
G1 X54.468 Y79.017 E7.01925 F1800
G1 X54.980 Y79.904 E7.05332 F300
G1 X55.032 Y79.995 E7.05678 F1800
G1 X55.544 Y80.882 E7.09085 F300
G1 X55.596 Y80.972 E7.09432 F1800
G1 X56.975 Y83.360 E7.18604 F400
G1 X57.027 Y83.450 E7.18950 F1800
G1 X58.060 Y85.240 E7.25822 F300
G1 X58.112 Y85.330 E7.26168 F1800
G1 X58.796 Y86.514 E7.30716 F400
G1 X58.848 Y86.604 E7.31063 F1800
G1 X59.532 Y87.788 E7.35610 F400
G1 X59.584 Y87.878 E7.35957 F1800
G1 X59.920 Y88.460 E7.38192 F400
G1 X59.972 Y88.551 E7.38538 F1800
G1 X60.349 Y89.204 E7.41047 F449
G1 X60.401 Y89.294 E7.41394 F1800
G1 X60.825 Y90.027 E7.44210 F505
G1 X60.877 Y90.118 E7.44557 F1800
G1 X61.325 Y90.895 E7.47540 F535
G1 X61.377 Y90.985 E7.47887 F1800
G1 X63.443 Y94.563 E7.61630 F600
G1 X63.495 Y94.653 E7.61976 F1800
G1 X63.898 Y95.351 E7.64654 F357
G1 X63.950 Y95.441 E7.65001 F1800
G1 X64.353 Y96.138 E7.67679 F357
G1 X64.405 Y96.228 E7.68025 F1800
G1 X64.763 Y96.850 E7.70411 F318
G1 X64.815 Y96.940 E7.70758 F1800
G1 X65.425 Y97.995 E7.74809 F357
G1 X65.477 Y98.085 E7.75156 F1800
G1 X66.501 Y99.859 E7.81969 F600
G1 X66.553 Y99.949 E7.82316 F1800
G1 X67.230 Y101.122 E7.86820 F600
G1 X67.282 Y101.212 E7.87166 F1800
G1 X68.000 Y102.455 E7.91938 F636
G1 X68.052 Y102.545 E7.92285 F1800
G1 X68.857 Y103.940 E7.97641 F714
G1 X68.909 Y104.030 E7.97987 F1800
G1 X70.276 Y106.398 E8.07083 F801
G1 X70.328 Y106.488 E8.07429 F1800
G1 X70.871 Y107.428 E8.11039 F318
G1 X70.923 Y107.518 E8.11385 F1800
G1 X71.190 Y107.980 E8.13159 F318
G1 X71.242 Y108.071 E8.13506 F1800
G1 X71.541 Y108.589 E8.15497 F357
G1 X71.593 Y108.679 E8.15843 F1800
G1 X71.929 Y109.261 E8.18079 F400
G1 X71.981 Y109.352 E8.18425 F1800
G1 X72.358 Y110.005 E8.20934 F449
G1 X72.411 Y110.095 E8.21281 F1800
G1 X73.224 Y111.503 E8.26689 F476
G1 X73.276 Y111.593 E8.27035 F1800
G1 X73.644 Y112.231 E8.29482 F318
G1 X74.685 Y114.035 E8.36412 F1800
G1 X75.589 Y115.600 E8.42424 F801
G1 X75.641 Y115.690 E8.42770 F1800
G1 X76.446 Y117.085 E8.48126 F714
G1 X76.498 Y117.175 E8.48473 F1800
G1 X77.216 Y118.418 E8.53245 F636
G1 X77.268 Y118.508 E8.53591 F1800
G1 X78.094 Y119.938 E8.59085 F714
G1 X78.354 Y120.390 E8.60817 F1800
G1 X78.823 Y121.201 E8.63933 F476
G1 X78.875 Y121.291 E8.64280 F1800
G1 X79.592 Y122.534 E8.69052 F636
G1 X79.644 Y122.624 E8.69398 F1800
G1 X81.189 Y125.300 E8.79677 F600
G1 X81.241 Y125.390 E8.80023 F1800
G1 X81.641 Y126.083 E8.82681 F476
G1 X81.693 Y126.173 E8.83028 F1800
G1 X82.726 Y127.963 E8.89902 F476
G1 X85.070 Y132.022 E9.05493 F1800
G1 X87.136 Y135.601 E9.19236 F600
G1 X87.188 Y135.691 E9.19583 F1800
G1 X87.637 Y136.468 E9.22566 F535
G1 X87.689 Y136.558 E9.22913 F1800
G1 X88.045 Y137.175 E9.25281 F424
G1 X88.097 Y137.265 E9.25627 F1800
G1 X88.546 Y138.042 E9.28611 F535
G1 X88.598 Y138.132 E9.28958 F1800
G1 X89.101 Y139.004 E9.32307 F600
G1 X89.153 Y139.094 E9.32653 F1800
G1 X90.606 Y141.611 E9.42319 F636
G1 X90.658 Y141.701 E9.42666 F1800
G1 X91.110 Y142.484 E9.45672 F400
G1 X91.162 Y142.574 E9.46018 F1800
G1 X92.623 Y145.104 E9.55736 F424
G1 X92.675 Y145.195 E9.56082 F1800
G1 X93.700 Y146.969 E9.62896 F600
G1 X93.752 Y147.059 E9.63243 F1800
G1 X94.664 Y148.640 E9.69313 F535
G1 X94.716 Y148.730 E9.69660 F1800
G1 X95.529 Y150.138 E9.75068 F476
G1 X95.581 Y150.228 E9.75414 F1800
G1 X95.981 Y150.920 E9.78072 F476
G1 X96.033 Y151.011 E9.78419 F1800
G1 X96.482 Y151.788 E9.81403 F535
G1 X96.534 Y151.878 E9.81749 F1800
G1 X97.067 Y152.801 E9.85296 F600
G1 X97.067 Y152.802 E9.85298 F642
G1 X97.128 Y152.886 E9.85644 F642
G1 X97.129 Y152.886 E9.85646 F703
G1 X97.206 Y152.956 E9.85991 F703
G1 X97.207 Y152.956 E9.85994 F604
G1 X97.297 Y153.008 E9.86339 F604
G1 X97.396 Y153.040 E9.86687 F550
G1 X97.397 Y153.040 E9.86689 F526
G1 X97.500 Y153.051 E9.87034 F526
G1 X97.501 Y153.051 E9.87037 F526
G1 X97.604 Y153.040 E9.87382 F526
G1 X97.605 Y153.040 E9.87384 F550
G1 X97.703 Y153.008 E9.87730 F550
G1 X97.704 Y153.008 E9.87732 F604
G1 X97.794 Y152.956 E9.88077 F604
G1 X97.794 Y152.955 E9.88080 F703
G1 X97.872 Y152.886 E9.88425 F703
G1 X97.872 Y152.885 E9.88427 F642
G1 X97.933 Y152.801 E9.88773 F642
G1 X98.247 Y152.257 E9.90863 F600
G1 X98.261 Y152.234 E9.90951 F1800
G1 X98.260 Y152.156 F1800
G1 X98.258 Y151.459 F309
G1 X98.257 Y151.355 F1800
G1 X98.248 Y148.967 F347
G1 X98.248 Y148.862 F1800
G1 X98.241 Y147.282 F463
G1 X98.241 Y147.178 F1800
G1 X98.236 Y145.770 F412
G1 X98.235 Y145.665 F1800
G1 X98.230 Y144.336 F389
G1 X98.230 Y144.232 F1800
G1 X98.227 Y143.579 F389
G1 X98.227 Y143.475 F1800
G1 X98.224 Y142.741 F437
G1 X98.223 Y142.637 F1800
G1 X98.215 Y140.395 F490
G1 X98.214 Y140.291 F1800
G1 X98.211 Y139.412 F389
G1 X98.210 Y139.308 F1800
G1 X98.205 Y137.979 F389
G1 X98.205 Y137.875 F1800
G1 X98.203 Y137.385 F292
G1 X98.203 Y137.281 F1800
G1 X98.201 Y136.732 F327
G1 X98.200 Y136.628 F1800
G1 X98.185 Y132.611 F583
G1 X98.184 Y132.507 F1800
G1 X98.177 Y130.733 F520
G1 X98.177 Y130.628 F1800
G1 X98.175 Y130.192 F260
G1 X98.175 Y130.088 F1800
G1 X98.173 Y129.652 F260
G1 X98.173 Y129.548 F1800
G1 X98.169 Y128.661 F260
G1 X98.169 Y128.557 F1800
G1 X98.167 Y128.121 F260
G1 X98.167 Y128.017 F1800
G1 X98.165 Y127.581 F260
G1 X98.165 Y127.476 F1800
G1 X98.160 Y126.359 F327
G1 X98.160 Y126.255 F1800
G1 X98.158 Y125.819 F260
G1 X98.158 Y125.714 F1800
G1 X98.156 Y125.278 F260
G1 X98.156 Y125.174 F1800
G1 X98.152 Y124.287 F260
G1 X98.152 Y124.183 F1800
G1 X98.148 Y123.296 F260
G1 X98.148 Y123.192 F1800
G1 X98.139 Y120.804 F347
G1 X98.138 Y120.699 F1800
G1 X98.136 Y120.113 F260
G1 X98.136 Y120.009 F1800
G1 X98.133 Y119.226 F347
G1 X98.132 Y119.122 F1800
G1 X98.130 Y118.425 F309
G1 X98.129 Y118.320 F1800
G1 X98.125 Y117.136 F347
G1 X98.124 Y117.032 F1800
G1 X98.120 Y115.848 F347
G1 X98.119 Y115.744 F1800
G1 X98.117 Y115.162 F347
G1 X98.117 Y115.058 F1800
G1 X98.114 Y114.404 F389
G1 X98.114 Y114.300 F1800
G1 X98.111 Y113.567 F437
G1 X98.110 Y113.463 F1800
G1 X98.107 Y112.686 F463
G1 X98.107 Y112.582 F1800
G1 X98.104 Y111.710 F520
G1 X98.103 Y111.605 F1800
G1 X98.097 Y110.014 F309
G1 X98.097 Y109.910 F1800
G1 X98.094 Y109.213 F309
G1 X98.093 Y109.108 F1800
G1 X98.091 Y108.411 F309
G1 X98.090 Y108.307 F1800
G1 X98.088 Y107.686 F275
G1 X98.088 Y107.582 F1800
G1 X98.083 Y106.527 F309
G1 X98.083 Y106.422 F1800
G1 X98.076 Y104.648 F520
G1 X98.076 Y104.544 F1800
G1 X98.071 Y103.371 F520
G1 X98.071 Y103.267 F1800
G1 X98.066 Y102.025 F551
G1 X98.066 Y101.921 F1800
G1 X98.060 Y100.526 F618
G1 X98.060 Y100.422 F1800
G1 X98.041 Y95.645 F694
G1 X98.041 Y95.541 F1800
G1 X98.038 Y94.920 F275
G1 X98.038 Y94.816 F1800
G1 X98.036 Y94.194 F275
G1 X98.035 Y94.090 F1800
G1 X98.033 Y93.537 F245
G1 X98.033 Y93.433 F1800
G1 X98.025 Y91.537 F275
G1 X98.025 Y91.433 F1800
G1 X98.003 Y85.752 F825
G1 X98.003 Y85.648 F1800
G1 X97.982 Y80.287 F779
G1 X97.981 Y80.183 F1800
G1 X97.964 Y75.674 F655
G1 X97.964 Y75.570 F1800
G1 X97.957 Y73.781 F260
G1 X97.956 Y73.677 F1800
G1 X97.942 Y70.098 F520
G1 X97.942 Y69.994 F1800
G1 X97.938 Y69.038 F551
G1 X97.934 Y67.997 F1800
G1 X97.933 Y67.699 F347
G1 X97.933 Y67.698 E9.90954 F429
G1 X97.872 Y67.614 E9.91299 F429
G1 X97.871 Y67.614 E9.91301 F470
G1 X97.794 Y67.544 E9.91647 F470
G1 X97.793 Y67.544 E9.91649 F403
G1 X97.703 Y67.492 E9.91994 F403
G1 X97.703 Y67.492 E9.91997 F367
G1 X97.604 Y67.460 E9.92342 F367
G1 X97.603 Y67.460 E9.92344 F351
G1 X97.500 Y67.449 E9.92690 F351
G1 X97.499 Y67.449 E9.92692 F351
G1 X97.469 Y67.452 E9.92794 F351
G1 X97.396 Y67.460 E9.93037 F1800
G1 X97.395 Y67.460 E9.93040 F1800
G1 X97.367 Y67.469 E9.93141 F1800
G1 X97.297 Y67.492 E9.93385 F436
G1 X97.296 Y67.492 E9.93387 F479
G1 X97.206 Y67.544 E9.93733 F479
G1 X97.206 Y67.545 E9.93735 F558
G1 X97.128 Y67.614 E9.94080 F558
G1 X97.128 Y67.615 E9.94083 F510
G1 X97.067 Y67.699 E9.94428 F510
G1 X96.715 Y68.308 E9.96769 F476
G1 X96.663 Y68.398 E9.97116 F1800
G1 X96.343 Y68.952 E9.99241 F283
G1 X96.291 Y69.042 E9.99588 F1800
G1 X95.839 Y69.825 E10.02594 F400
G1 X95.787 Y69.915 E10.02940 F1800
G1 X95.250 Y70.846 E10.06515 F476
G1 X95.198 Y70.936 E10.06861 F1800
G1 X94.223 Y72.625 E10.13347 F283
G1 X94.171 Y72.715 E10.13694 F1800
G1 X91.413 Y77.492 E10.32038 F801
G1 X91.361 Y77.582 E10.32385 F1800
G1 X88.758 Y82.090 E10.49700 F756
G1 X88.706 Y82.181 E10.50047 F1800
G1 X86.640 Y85.759 E10.63790 F600
G1 X86.588 Y85.849 E10.64136 F1800
G1 X85.555 Y87.638 E10.71008 F300
G1 X85.503 Y87.729 E10.71354 F1800
G1 X83.437 Y91.307 E10.85097 F600
G1 X83.385 Y91.397 E10.85443 F1800
G1 X82.833 Y92.353 E10.89114 F636
G1 X82.312 Y93.255 E10.92579 F1800
G1 X81.860 Y94.038 E10.95585 F400
G1 X81.808 Y94.128 E10.95931 F1800
G1 X81.271 Y95.059 E10.99506 F476
G1 X81.219 Y95.149 E10.99853 F1800
G1 X80.899 Y95.703 E11.01978 F283
G1 X80.847 Y95.793 E11.02325 F1800
G1 X80.395 Y96.575 E11.05331 F400
G1 X80.343 Y96.666 E11.05677 F1800
G1 X79.806 Y97.596 E11.09252 F476
G1 X79.753 Y97.687 E11.09598 F1800
G1 X78.778 Y99.375 E11.16084 F283
G1 X78.726 Y99.466 E11.16431 F1800
G1 X75.969 Y104.242 E11.34775 F801
G1 X75.916 Y104.332 E11.35122 F1800
G1 X73.313 Y108.841 E11.52437 F756
G1 X73.261 Y108.931 E11.52783 F1800
G1 X73.094 Y109.221 E11.53898 F600
G1 X72.933 Y109.500 E11.54968 F600
G1 X72.933 Y109.501 E11.54970 F569
G1 X72.890 Y109.595 E11.55316 F569
G1 X72.890 Y109.596 E11.55318 F531
G1 X72.869 Y109.698 E11.55663 F531
G1 X72.869 Y109.698 E11.55666 F520
G1 X72.869 Y109.802 E11.56011 F520
G1 X72.869 Y109.803 E11.56013 F531
G1 X72.890 Y109.905 E11.56359 F531
G1 X72.891 Y109.905 E11.56361 F569
G1 X72.933 Y110.000 E11.56706 F569
G1 X72.933 Y110.001 E11.56709 F642
G1 X72.994 Y110.085 E11.57054 F642
G1 X72.995 Y110.085 E11.57056 F704
G1 X73.014 Y110.102 E11.57141 F704
G1 X73.072 Y110.155 E11.57402 F1800
G1 X73.073 Y110.155 E11.57404 F1800
G1 X73.095 Y110.167 E11.57488 F1800
G1 X73.163 Y110.207 E11.57749 F302
G1 X73.163 Y110.207 E11.57752 F275
G1 X73.262 Y110.239 E11.58097 F275
G1 X73.263 Y110.239 E11.58099 F263
G1 X73.366 Y110.250 E11.58445 F263
G1 X73.685 Y110.250 E11.59504 F261
G1 X73.789 Y110.250 E11.59850 F1800
G1 X74.379 Y110.250 E11.61813 F261
G1 X74.483 Y110.250 E11.62159 F1800
G1 X76.283 Y110.250 E11.68146 F261
G1 X76.387 Y110.250 E11.68493 F1800
G1 X79.415 Y110.250 E11.78562 F440
G1 X79.519 Y110.250 E11.78909 F1800
G1 X82.726 Y110.250 E11.89577 F466
G1 X82.830 Y110.250 E11.89923 F1800
G1 X83.665 Y110.250 E11.92698 F370
G1 X83.769 Y110.250 E11.93045 F1800
G1 X84.603 Y110.250 E11.95820 F370
G1 X84.707 Y110.250 E11.96166 F1800
G1 X85.495 Y110.250 E11.98785 F349
G1 X85.599 Y110.250 E11.99132 F1800
G1 X88.145 Y110.250 E12.07599 F370
G1 X88.249 Y110.250 E12.07946 F1800
G1 X92.063 Y110.250 E12.20632 F554
G1 X92.168 Y110.250 E12.20979 F1800
G1 X95.768 Y110.250 E12.32953 F523
G1 X95.872 Y110.250 E12.33300 F1800
G1 X96.808 Y110.250 E12.36414 F415
G1 X96.913 Y110.250 E12.36761 F1800
G1 X97.700 Y110.250 E12.39380 F349
G1 X97.804 Y110.250 E12.39727 F1800
G1 X98.506 Y110.250 E12.42060 F311
G1 X98.610 Y110.250 E12.42407 F1800
G1 X101.013 Y110.250 E12.50399 F349
G1 X101.117 Y110.250 E12.50745 F1800
G1 X103.520 Y110.250 E12.58737 F349
G1 X103.624 Y110.250 E12.59084 F1800
G1 X104.961 Y110.250 E12.63531 F392
G1 X105.066 Y110.250 E12.63878 F1800
G1 X105.723 Y110.250 E12.66064 F392
G1 X105.827 Y110.250 E12.66410 F1800
G1 X106.565 Y110.250 E12.68864 F440
G1 X106.669 Y110.250 E12.69211 F1800
G1 X110.067 Y110.250 E12.80513 F493
G1 X110.171 Y110.250 E12.80860 F1800
G1 X111.509 Y110.250 E12.85307 F392
G1 X111.613 Y110.250 E12.85654 F1800
G1 X112.105 Y110.250 E12.87292 F293
G1 X112.209 Y110.250 E12.87638 F1800
G1 X112.762 Y110.250 E12.89476 F329
G1 X112.866 Y110.250 E12.89823 F1800
G1 X114.870 Y110.250 E12.96487 F587
G1 X114.974 Y110.250 E12.96833 F1800
G1 X116.311 Y110.250 E13.01281 F392
G1 X116.415 Y110.250 E13.01627 F1800
G1 X118.200 Y110.250 E13.07564 F523
G1 X118.305 Y110.250 E13.07911 F1800
G1 X118.743 Y110.250 E13.09370 F261
G1 X118.847 Y110.250 E13.09716 F1800
G1 X119.286 Y110.250 E13.11175 F261
G1 X119.390 Y110.250 E13.11522 F1800
G1 X120.283 Y110.250 E13.14490 F261
G1 X120.387 Y110.250 E13.14837 F1800
G1 X120.826 Y110.250 E13.16296 F261
G1 X120.930 Y110.250 E13.16642 F1800
G1 X121.312 Y110.250 E13.17914 F261
G1 X121.369 Y110.250 E13.18101 F261
G1 X121.473 Y110.250 E13.18448 F1800
G1 X121.634 Y110.250 E13.18984 F329
G1 X121.635 Y110.250 E13.18987 F331
G1 X121.738 Y110.239 E13.19332 F331
G1 X121.739 Y110.239 E13.19334 F346
G1 X121.837 Y110.207 E13.19680 F346
G1 X121.838 Y110.206 E13.19682 F380
G1 X121.928 Y110.155 E13.20027 F380
G1 X121.928 Y110.154 E13.20030 F443
G1 X122.006 Y110.085 E13.20375 F443
G1 X122.006 Y110.084 E13.20377 F405
G1 X122.067 Y110.000 E13.20723 F405
G1 X122.067 Y109.999 E13.20725 F358
G1 X122.109 Y109.905 E13.21070 F358
G1 X122.110 Y109.904 E13.21073 F335
G1 X122.131 Y109.802 E13.21418 F335
G1 X122.131 Y109.802 E13.21420 F327
G1 X122.131 Y109.698 E13.21766 F327
G1 X122.131 Y109.697 E13.21768 F335
G1 X122.109 Y109.595 E13.22113 F335
G1 X122.109 Y109.595 E13.22116 F358
G1 X122.067 Y109.500 E13.22461 F358
G1 X122.065 Y109.497 E13.22474 F378
G1 X122.013 Y109.406 E13.22821 F1800
G1 X121.761 Y108.970 E13.24495 F300
G1 X121.709 Y108.880 E13.24842 F1800
G1 X121.457 Y108.444 E13.26516 F300
G1 X121.405 Y108.354 E13.26863 F1800
G1 X120.830 Y107.358 E13.30687 F337
G1 X120.778 Y107.268 E13.31033 F1800
G1 X120.122 Y106.131 E13.35399 F378
G1 X118.743 Y103.743 E13.44571 F400
G1 X118.691 Y103.653 E13.44917 F1800
G1 X118.239 Y102.870 E13.47923 F400
G1 X118.187 Y102.780 E13.48270 F1800
G1 X117.735 Y101.997 E13.51276 F400
G1 X117.683 Y101.907 E13.51622 F1800
G1 X117.231 Y101.124 E13.54629 F400
G1 X117.179 Y101.034 E13.54975 F1800
G1 X116.148 Y99.248 E13.61835 F400
G1 X116.096 Y99.158 E13.62181 F1800
G1 X115.760 Y98.576 E13.64417 F400
G1 X115.708 Y98.485 E13.64763 F1800
G1 X115.256 Y97.703 E13.67769 F400
G1 X115.204 Y97.612 E13.68116 F1800
G1 X114.752 Y96.830 E13.71122 F400
G1 X114.700 Y96.740 E13.71468 F1800
G1 X114.248 Y95.957 E13.74474 F400
G1 X114.196 Y95.867 E13.74821 F1800
G1 X113.269 Y94.261 E13.80987 F400
G1 X112.866 Y93.564 E13.83665 F357
G1 X112.814 Y93.473 E13.84012 F1800
G1 X111.435 Y91.085 E13.93184 F400
G1 X111.383 Y90.995 E13.93530 F1800
G1 X110.464 Y89.404 E13.99642 F357
G1 X110.412 Y89.313 E13.99988 F1800
G1 X110.076 Y88.731 E14.02224 F400
G1 X110.024 Y88.641 E14.02570 F1800
G1 X109.572 Y87.859 E14.05576 F400
G1 X109.520 Y87.768 E14.05923 F1800
G1 X109.068 Y86.986 E14.08929 F400
G1 X109.016 Y86.895 E14.09275 F1800
G1 X108.564 Y86.113 E14.12281 F400
G1 X108.512 Y86.022 E14.12628 F1800
G1 X107.643 Y84.517 E14.18409 F400
G1 X107.383 Y84.066 E14.20141 F1800
G1 X106.980 Y83.369 E14.22819 F357
G1 X106.928 Y83.279 E14.23166 F1800
G1 X105.549 Y80.890 E14.32338 F400
G1 X105.497 Y80.800 E14.32684 F1800
G1 X104.679 Y79.382 E14.38129 F318
G1 X104.627 Y79.292 E14.38476 F1800
G1 X104.290 Y78.710 E14.40711 F400
G1 X104.238 Y78.620 E14.41057 F1800
G1 X103.786 Y77.837 E14.44063 F400
G1 X103.734 Y77.747 E14.44410 F1800
G1 X103.282 Y76.964 E14.47416 F400
G1 X103.230 Y76.874 E14.47762 F1800
G1 X102.779 Y76.091 E14.50769 F400
G1 X102.726 Y76.001 E14.51115 F1800
G1 X102.043 Y74.817 E14.55663 F400
G1 X101.991 Y74.727 E14.56009 F1800
G1 X101.739 Y74.291 E14.57684 F300
G1 X101.687 Y74.201 E14.58030 F1800
G1 X101.435 Y73.765 E14.59705 F300
G1 X101.383 Y73.674 E14.60051 F1800
G1 X100.871 Y72.787 E14.63458 F300
G1 X100.819 Y72.697 E14.63804 F1800
G1 X100.567 Y72.261 E14.65479 F300
G1 X100.515 Y72.171 E14.65825 F1800
G1 X100.263 Y71.735 E14.67500 F300
G1 X100.211 Y71.645 E14.67847 F1800
G1 X99.699 Y70.758 E14.71253 F300
G1 X99.647 Y70.667 E14.71600 F1800
G1 X99.395 Y70.231 E14.73274 F300
G1 X99.343 Y70.141 E14.73621 F1800
G1 X99.091 Y69.705 E14.75295 F300
G1 X99.039 Y69.615 E14.75642 F1800
G1 X98.527 Y68.728 E14.79049 F300
G1 X98.475 Y68.638 E14.79395 F1800
G1 X98.094 Y67.977 E14.81931 F300
G1 X97.963 Y67.750 E14.82802 F300
G1 X97.933 Y67.699 E14.83001 F1800
G1 Z0.400 F120
G1 X97.934 Y67.743 F1800
G1 X97.962 Y70.131 F347
G1 X97.963 Y70.236 F1800
G1 X97.984 Y72.025 F260
G1 X97.985 Y72.129 F1800
G1 X97.999 Y73.313 F347
G1 X98.000 Y73.417 F1800
G1 X98.014 Y74.601 F347
G1 X98.016 Y74.705 F1800
G1 X98.022 Y75.288 F347
G1 X98.024 Y75.392 F1800
G1 X98.031 Y76.045 F389
G1 X98.033 Y76.149 F1800
G1 X98.041 Y76.882 F437
G1 X98.042 Y76.987 F1800
G1 X98.052 Y77.763 F463
G1 X98.053 Y77.868 F1800
G1 X98.095 Y81.446 F520
G1 X98.096 Y81.550 F1800
G1 X98.104 Y82.248 F309
G1 X98.106 Y82.352 F1800
G1 X98.114 Y83.049 F309
G1 X98.115 Y83.153 F1800
G1 X98.122 Y83.774 F275
G1 X98.124 Y83.879 F1800
G1 X98.136 Y84.933 F309
G1 X98.137 Y85.038 F1800
G1 X98.158 Y86.812 F520
G1 X98.159 Y86.916 F1800
G1 X98.173 Y88.089 F520
G1 X98.174 Y88.193 F1800
G1 X98.189 Y89.435 F551
G1 X98.190 Y89.540 F1800
G1 X98.207 Y90.934 F618
G1 X98.208 Y91.038 F1800
G1 X98.236 Y93.407 F694
G1 X98.237 Y93.511 F1800
G1 X98.248 Y94.451 F275
G1 X98.249 Y94.555 F1800
G1 X98.255 Y95.017 F275
G1 X98.256 Y95.121 F1800
G1 X98.262 Y95.639 F309
G1 X98.263 Y95.744 F1800
G1 X98.270 Y96.326 F347
G1 X98.272 Y96.430 F1800
G1 X98.279 Y97.083 F389
G1 X98.280 Y97.187 F1800
G1 X98.297 Y98.595 F412
G1 X98.298 Y98.699 F1800
G1 X98.306 Y99.337 F275
G1 X98.330 Y101.420 F1800
G1 X98.349 Y102.985 F694
G1 X98.350 Y103.089 F1800
G1 X98.366 Y104.484 F618
G1 X98.368 Y104.588 F1800
G1 X98.382 Y105.831 F551
G1 X98.384 Y105.935 F1800
G1 X98.400 Y107.365 F618
G1 X98.407 Y107.886 F1800
G1 X98.416 Y108.698 F412
G1 X98.417 Y108.802 F1800
G1 X98.432 Y110.044 F551
G1 X98.433 Y110.148 F1800
G1 X98.465 Y112.825 F520
G1 X98.466 Y112.929 F1800
G1 X98.474 Y113.621 F412
G1 X98.475 Y113.725 F1800
G1 X98.496 Y115.515 F412
G1 X98.552 Y120.202 F1800
G1 X98.594 Y123.781 F520
G1 X98.595 Y123.885 F1800
G1 X98.604 Y124.662 F463
G1 X98.605 Y124.766 F1800
G1 X98.613 Y125.383 F367
G1 X98.614 Y125.487 F1800
G1 X98.623 Y126.264 F463
G1 X98.624 Y126.368 F1800
G1 X98.635 Y127.240 F520
G1 X98.636 Y127.344 F1800
G1 X98.665 Y129.861 F551
G1 X98.667 Y129.965 F1800
G1 X98.676 Y130.748 F347
G1 X98.677 Y130.852 F1800
G1 X98.707 Y133.382 F367
G1 X98.708 Y133.486 F1800
G1 X98.729 Y135.260 F520
G1 X98.730 Y135.365 F1800
G1 X98.749 Y136.945 F463
G1 X98.750 Y137.049 F1800
G1 X98.767 Y138.458 F412
G1 X98.768 Y138.562 F1800
G1 X98.776 Y139.254 F412
G1 X98.777 Y139.358 F1800
G1 X98.787 Y140.135 F463
G1 X98.788 Y140.239 F1800
G1 X98.816 Y142.615 F520
G1 X98.817 Y142.719 F1800
G1 X98.825 Y143.416 F309
G1 X98.826 Y143.520 F1800
G1 X98.855 Y145.909 F347
G1 X98.856 Y146.013 F1800
G1 X98.874 Y147.593 F463
G1 X98.876 Y147.698 F1800
G1 X98.892 Y149.106 F412
G1 X98.893 Y149.210 F1800
G1 X98.909 Y150.539 F389
G1 X98.910 Y150.643 F1800
G1 X98.916 Y151.099 F389
G1 X99.030 Y150.902 E14.83758 F449
G1 X99.082 Y150.812 E14.84105 F1800
G1 X99.505 Y150.079 E14.86921 F505
G1 X99.557 Y149.988 E14.87267 F1800
G1 X100.852 Y147.746 E14.95879 F566
G1 X100.904 Y147.656 E14.96225 F1800
G1 X101.411 Y146.777 E14.99600 F449
G1 X101.463 Y146.687 E14.99946 F1800
G1 X102.230 Y145.358 E15.05051 F449
G1 X102.282 Y145.268 E15.05397 F1800
G1 X102.565 Y144.778 E15.07277 F337
G1 X102.617 Y144.688 E15.07623 F1800
G1 X102.934 Y144.139 E15.09733 F378
G1 X102.986 Y144.049 E15.10079 F1800
G1 X105.305 Y140.032 E15.25505 F673
G1 X105.357 Y139.942 E15.25852 F1800
G1 X106.382 Y138.168 E15.32666 F600
G1 X106.434 Y138.077 E15.33012 F1800
G1 X106.686 Y137.641 E15.34687 F300
G1 X106.738 Y137.551 E15.35033 F1800
G1 X106.989 Y137.115 E15.36708 F300
G1 X107.042 Y137.025 E15.37054 F1800
G1 X107.554 Y136.138 E15.40461 F300
G1 X107.606 Y136.048 E15.40807 F1800
G1 X107.857 Y135.612 E15.42482 F300
G1 X107.910 Y135.521 E15.42829 F1800
G1 X108.161 Y135.085 E15.44503 F300
G1 X108.213 Y134.995 E15.44850 F1800
G1 X108.859 Y133.877 E15.49142 F378
G1 X108.911 Y133.787 E15.49488 F1800
G1 X109.163 Y133.351 E15.51163 F300
G1 X109.215 Y133.261 E15.51509 F1800
G1 X109.466 Y132.825 E15.53184 F300
G1 X109.518 Y132.735 E15.53530 F1800
G1 X110.031 Y131.848 E15.56937 F300
G1 X110.083 Y131.757 E15.57284 F1800
G1 X110.595 Y130.870 E15.60691 F300
G1 X110.647 Y130.780 E15.61037 F1800
G1 X112.026 Y128.392 E15.70210 F400
G1 X112.078 Y128.302 E15.70556 F1800
G1 X112.416 Y127.715 E15.72808 F300
G1 X112.468 Y127.625 E15.73154 F1800
G1 X112.920 Y126.842 E15.76161 F400
G1 X112.972 Y126.752 E15.76507 F1800
G1 X113.375 Y126.055 E15.79185 F357
G1 X113.427 Y125.965 E15.79532 F1800
G1 X114.111 Y124.781 E15.84079 F400
G1 X114.163 Y124.690 E15.84426 F1800
G1 X114.847 Y123.506 E15.88973 F400
G1 X114.899 Y123.416 E15.89320 F1800
G1 X115.235 Y122.834 E15.91555 F400
G1 X115.287 Y122.744 E15.91901 F1800
G1 X115.664 Y122.090 E15.94410 F449
G1 X115.716 Y122.000 E15.94757 F1800
G1 X116.139 Y121.267 E15.97573 F505
G1 X116.191 Y121.177 E15.97920 F1800
G1 X116.640 Y120.400 E16.00903 F535
G1 X116.692 Y120.310 E16.01250 F1800
G1 X117.196 Y119.438 E16.04599 F600
G1 X117.248 Y119.347 E16.04945 F1800
G1 X118.166 Y117.756 E16.11057 F357
G1 X118.218 Y117.666 E16.11404 F1800
G1 X118.621 Y116.969 E16.14082 F357
G1 X118.673 Y116.878 E16.14428 F1800
G1 X119.076 Y116.181 E16.17106 F357
G1 X119.128 Y116.091 E16.17453 F1800
G1 X119.487 Y115.470 E16.19839 F318
G1 X119.539 Y115.379 E16.20185 F1800
G1 X120.148 Y114.324 E16.24237 F357
G1 X120.200 Y114.234 E16.24583 F1800
G1 X121.224 Y112.460 E16.31397 F600
G1 X121.276 Y112.370 E16.31743 F1800
G1 X121.953 Y111.197 E16.36247 F600
G1 X122.005 Y111.107 E16.36594 F1800
G1 X122.723 Y109.864 E16.41366 F636
G1 X122.775 Y109.774 E16.41712 F1800
G1 X123.580 Y108.379 E16.47068 F714
G1 X123.632 Y108.289 E16.47415 F1800
G1 X126.390 Y103.513 E16.65759 F801
G1 X126.442 Y103.422 E16.66106 F1800
G1 X126.801 Y102.801 E16.68492 F318
G1 X126.853 Y102.711 E16.68838 F1800
G1 X127.211 Y102.090 E16.71224 F318
G1 X127.263 Y102.000 E16.71571 F1800
G1 X127.583 Y101.446 E16.73696 F283
G1 X127.635 Y101.356 E16.74043 F1800
G1 X128.729 Y99.460 E16.81323 F318
G1 X128.782 Y99.370 E16.81669 F1800
G1 X132.061 Y93.690 E17.03485 F952
G1 X132.113 Y93.600 E17.03831 F1800
G1 X135.209 Y88.238 E17.24423 F899
G1 X135.261 Y88.148 E17.24769 F1800
G1 X137.864 Y83.639 E17.42084 F756
G1 X137.916 Y83.549 E17.42431 F1800
G1 X138.949 Y81.760 E17.49302 F300
G1 X139.001 Y81.670 E17.49649 F1800
G1 X141.067 Y78.091 E17.63392 F600
G1 X141.119 Y78.001 E17.63738 F1800
G1 X141.671 Y77.045 E17.67409 F636
G1 X142.192 Y76.143 E17.70873 F1800
G1 X142.643 Y75.360 E17.73879 F400
G1 X142.696 Y75.270 E17.74226 F1800
G1 X143.233 Y74.339 E17.77801 F476
G1 X143.285 Y74.249 E17.78147 F1800
G1 X143.605 Y73.696 E17.80273 F283
G1 X143.657 Y73.606 E17.80619 F1800
G1 X144.109 Y72.823 E17.83625 F400
G1 X144.161 Y72.733 E17.83972 F1800
G1 X144.698 Y71.802 E17.87547 F476
G1 X144.750 Y71.712 E17.87893 F1800
G1 X145.725 Y70.023 E17.94379 F283
G1 X145.777 Y69.933 E17.94725 F1800
G1 X147.067 Y67.699 E18.03305 F801
G1 X147.068 Y67.697 E18.03312 F759
G1 X147.109 Y67.603 E18.03652 F759
G1 X147.110 Y67.601 E18.03659 F709
G1 X147.131 Y67.501 E18.04000 F709
G1 X147.131 Y67.499 E18.04007 F694
G1 X147.131 Y67.396 E18.04348 F694
G1 X147.131 Y67.394 E18.04355 F709
G1 X147.109 Y67.294 E18.04695 F709
G1 X147.109 Y67.292 E18.04702 F759
G1 X147.067 Y67.199 E18.05043 F759
G1 X147.066 Y67.197 E18.05050 F857
G1 X147.006 Y67.114 E18.05391 F857
G1 X147.004 Y67.113 E18.05398 F939
G1 X146.928 Y67.044 E18.05738 F939
G1 X146.926 Y67.043 E18.05745 F806
G1 X146.837 Y66.992 E18.06086 F806
G1 X146.835 Y66.991 E18.06093 F734
G1 X146.738 Y66.960 E18.06434 F734
G1 X146.736 Y66.959 E18.06441 F702
G1 X146.634 Y66.949 E18.06781 F702
G1 X145.035 Y66.949 E18.12098 F698
G1 X144.931 Y66.949 E18.12445 F1800
G1 X144.669 Y66.949 E18.13318 F659
G1 X140.395 Y66.949 E18.27532 F659
G1 X140.291 Y66.949 E18.27878 F1800
G1 X136.691 Y66.949 E18.39853 F523
G1 X136.587 Y66.949 E18.40199 F1800
G1 X134.786 Y66.949 E18.46186 F261
G1 X134.682 Y66.949 E18.46533 F1800
G1 X131.082 Y66.949 E18.58507 F523
G1 X130.978 Y66.949 E18.58854 F1800
G1 X130.016 Y66.949 E18.62052 F554
G1 X128.975 Y66.949 E18.65517 F1800
G1 X128.187 Y66.949 E18.68136 F349
G1 X128.083 Y66.949 E18.68482 F1800
G1 X127.146 Y66.949 E18.71597 F415
G1 X127.042 Y66.949 E18.71944 F1800
G1 X126.485 Y66.949 E18.73796 F247
G1 X126.381 Y66.949 E18.74142 F1800
G1 X125.594 Y66.949 E18.76761 F349
G1 X125.490 Y66.949 E18.77108 F1800
G1 X124.553 Y66.949 E18.80223 F415
G1 X124.449 Y66.949 E18.80569 F1800
G1 X122.750 Y66.949 E18.86220 F247
G1 X122.646 Y66.949 E18.86567 F1800
G1 X117.840 Y66.949 E19.02551 F698
G1 X117.736 Y66.949 E19.02897 F1800
G1 X113.200 Y66.949 E19.17984 F659
G1 X113.095 Y66.949 E19.18331 F1800
G1 X111.916 Y66.949 E19.22255 F523
G1 X111.811 Y66.949 E19.22602 F1800
G1 X111.221 Y66.949 E19.24564 F261
G1 X111.117 Y66.949 E19.24910 F1800
G1 X110.527 Y66.949 E19.26873 F261
G1 X110.423 Y66.949 E19.27219 F1800
G1 X108.623 Y66.949 E19.33206 F261
G1 X108.519 Y66.949 E19.33553 F1800
G1 X105.491 Y66.949 E19.43622 F440
G1 X105.387 Y66.949 E19.43969 F1800
G1 X102.180 Y66.949 E19.54637 F466
G1 X102.076 Y66.949 E19.54983 F1800
G1 X101.241 Y66.949 E19.57758 F370
G1 X101.137 Y66.949 E19.58105 F1800
G1 X100.303 Y66.949 E19.60880 F370
G1 X100.199 Y66.949 E19.61226 F1800
G1 X99.411 Y66.949 E19.63845 F349
G1 X99.307 Y66.949 E19.64192 F1800
G1 X96.761 Y66.949 E19.72659 F370
G1 X96.657 Y66.949 E19.73006 F1800
G1 X92.843 Y66.949 E19.85692 F554
G1 X92.738 Y66.949 E19.86039 F1800
G1 X89.138 Y66.949 E19.98013 F523
G1 X89.034 Y66.949 E19.98360 F1800
G1 X88.097 Y66.949 E20.01475 F415
G1 X87.993 Y66.949 E20.01821 F1800
G1 X87.206 Y66.949 E20.04440 F349
G1 X87.102 Y66.949 E20.04787 F1800
G1 X86.400 Y66.949 E20.07120 F311
G1 X86.296 Y66.949 E20.07467 F1800
G1 X83.893 Y66.949 E20.15459 F349
G1 X83.789 Y66.949 E20.15805 F1800
G1 X81.386 Y66.949 E20.23797 F349
G1 X81.282 Y66.949 E20.24144 F1800
G1 X79.944 Y66.949 E20.28591 F392
G1 X79.840 Y66.949 E20.28938 F1800
G1 X79.183 Y66.949 E20.31124 F392
G1 X79.079 Y66.949 E20.31470 F1800
G1 X78.341 Y66.949 E20.33924 F440
G1 X78.237 Y66.949 E20.34271 F1800
G1 X74.839 Y66.949 E20.45573 F493
G1 X74.735 Y66.949 E20.45920 F1800
G1 X73.397 Y66.949 E20.50367 F392
G1 X73.293 Y66.949 E20.50714 F1800
G1 X72.801 Y66.949 E20.52352 F293
G1 X72.697 Y66.949 E20.52698 F1800
G1 X72.144 Y66.949 E20.54536 F329
G1 X72.040 Y66.949 E20.54883 F1800
G1 X70.036 Y66.949 E20.61547 F587
G1 X69.932 Y66.949 E20.61893 F1800
G1 X68.595 Y66.949 E20.66341 F392
G1 X68.490 Y66.949 E20.66688 F1800
G1 X66.705 Y66.949 E20.72624 F523
G1 X66.601 Y66.949 E20.72971 F1800
G1 X66.163 Y66.949 E20.74430 F261
G1 X66.058 Y66.949 E20.74776 F1800
G1 X65.620 Y66.949 E20.76236 F261
G1 X65.516 Y66.949 E20.76582 F1800
G1 X64.623 Y66.949 E20.79551 F261
G1 X64.519 Y66.949 E20.79897 F1800
G1 X64.080 Y66.949 E20.81356 F261
G1 X63.976 Y66.949 E20.81703 F1800
G1 X63.537 Y66.949 E20.83162 F261
G1 X63.433 Y66.949 E20.83508 F1800
G1 X62.309 Y66.949 E20.87248 F329
G1 X62.205 Y66.949 E20.87595 F1800
G1 X61.766 Y66.949 E20.89054 F261
G1 X61.662 Y66.949 E20.89400 F1800
G1 X61.223 Y66.949 E20.90859 F261
G1 X61.119 Y66.949 E20.91206 F1800
G1 X60.117 Y66.949 E20.94538 F293
G1 X60.013 Y66.949 E20.94884 F1800
G1 X58.869 Y66.949 E20.98688 F329
G1 X56.466 Y66.949 E21.06680 F349
G1 X56.362 Y66.949 E21.07026 F1800
G1 X55.575 Y66.949 E21.09645 F349
G1 X55.471 Y66.949 E21.09992 F1800
G1 X54.683 Y66.949 E21.12611 F349
G1 X54.579 Y66.949 E21.12958 F1800
G1 X53.791 Y66.949 E21.15577 F349
G1 X53.687 Y66.949 E21.15923 F1800
G1 X51.890 Y66.949 E21.21900 F349
G1 X51.786 Y66.949 E21.22247 F1800
G1 X51.200 Y66.949 E21.24195 F349
G1 X51.096 Y66.949 E21.24541 F1800
G1 X50.309 Y66.949 E21.27160 F349
G1 X50.205 Y66.949 E21.27507 F1800
G1 X49.417 Y66.949 E21.30126 F349
G1 X49.313 Y66.949 E21.30472 F1800
G1 X48.525 Y66.949 E21.33092 F349
G1 X48.421 Y66.949 E21.33438 F1800
G1 X48.366 Y66.949 E21.33622 F349
G1 X48.364 Y66.949 E21.33629 F351
G1 X48.262 Y66.960 E21.33969 F351
G1 X48.260 Y66.960 E21.33976 F367
G1 X48.163 Y66.992 E21.34317 F367
G1 X48.161 Y66.993 E21.34324 F403
G1 X48.072 Y67.044 E21.34665 F403
G1 X48.071 Y67.046 E21.34672 F470
G1 X47.994 Y67.114 E21.35012 F470
G1 X47.993 Y67.116 E21.35019 F429
G1 X47.933 Y67.199 E21.35360 F429
G1 X47.932 Y67.201 E21.35367 F380
G1 X47.890 Y67.294 E21.35708 F380
G1 X47.890 Y67.296 E21.35715 F355
G1 X47.869 Y67.396 E21.36055 F355
G1 X47.869 Y67.399 E21.36062 F347
G1 X47.869 Y67.501 E21.36403 F347
G1 X47.869 Y67.503 E21.36410 F355
G1 X47.890 Y67.603 E21.36751 F355
G1 X47.891 Y67.605 E21.36758 F380
G1 X47.933 Y67.699 E21.37098 F380
G1 X48.278 Y68.296 E21.39391 F400
G1 X48.680 Y68.993 E21.42069 F357
G1 X48.732 Y69.083 E21.42415 F1800
G1 X48.916 Y69.401 E21.43635 F400
G1 X50.111 Y71.471 E21.51587 F400
G1 X50.163 Y71.562 E21.51934 F1800
G1 X51.082 Y73.153 E21.58045 F357
G1 X51.134 Y73.243 E21.58392 F1800
G1 X51.470 Y73.825 E21.60627 F400
G1 X51.522 Y73.915 E21.60974 F1800
G1 X51.974 Y74.698 E21.63980 F400
G1 X52.026 Y74.788 E21.64326 F1800
G1 X52.478 Y75.571 E21.67332 F400
G1 X52.530 Y75.661 E21.67679 F1800
G1 X52.982 Y76.444 E21.70685 F400
G1 X53.034 Y76.534 E21.71031 F1800
G1 X53.903 Y78.039 E21.76812 F400
G1 X54.164 Y78.490 E21.78544 F1800
G1 X54.566 Y79.188 E21.81223 F357
G1 X54.618 Y79.278 E21.81569 F1800
G1 X55.997 Y81.666 E21.90741 F400
G1 X56.049 Y81.756 E21.91088 F1800
G1 X56.868 Y83.174 E21.96533 F318
G1 X56.920 Y83.264 E21.96879 F1800
G1 X57.256 Y83.846 E21.99114 F400
G1 X57.308 Y83.937 E21.99461 F1800
G1 X57.760 Y84.719 E22.02467 F400
G1 X57.812 Y84.810 E22.02813 F1800
G1 X58.264 Y85.592 E22.05819 F400
G1 X58.316 Y85.682 E22.06166 F1800
G1 X58.768 Y86.465 E22.09172 F400
G1 X58.820 Y86.555 E22.09518 F1800
G1 X59.504 Y87.740 E22.14066 F400
G1 X59.556 Y87.830 E22.14413 F1800
G1 X59.807 Y88.266 E22.16087 F300
G1 X59.859 Y88.356 E22.16434 F1800
G1 X60.111 Y88.792 E22.18108 F300
G1 X60.163 Y88.882 E22.18455 F1800
G1 X60.675 Y89.769 E22.21861 F300
G1 X60.728 Y89.859 E22.22208 F1800
G1 X60.979 Y90.296 E22.23882 F300
G1 X61.031 Y90.386 E22.24229 F1800
G1 X61.283 Y90.822 E22.25904 F300
G1 X61.335 Y90.912 E22.26250 F1800
G1 X61.847 Y91.799 E22.29657 F300
G1 X61.899 Y91.889 E22.30003 F1800
G1 X62.151 Y92.325 E22.31678 F300
G1 X62.203 Y92.415 E22.32024 F1800
G1 X62.455 Y92.852 E22.33699 F300
G1 X62.507 Y92.942 E22.34045 F1800
G1 X63.019 Y93.829 E22.37452 F300
G1 X63.071 Y93.919 E22.37799 F1800
G1 X63.583 Y94.806 E22.41206 F300
G1 X63.636 Y94.896 E22.41552 F1800
G1 X65.014 Y97.285 E22.50724 F400
G1 X65.067 Y97.375 E22.51071 F1800
G1 X66.099 Y99.164 E22.57942 F300
G1 X66.152 Y99.254 E22.58289 F1800
G1 X66.835 Y100.438 E22.62836 F400
G1 X66.887 Y100.529 E22.63183 F1800
G1 X67.571 Y101.713 E22.67731 F400
G1 X67.623 Y101.803 E22.68077 F1800
G1 X67.959 Y102.385 E22.70312 F400
G1 X68.011 Y102.475 E22.70659 F1800
G1 X68.388 Y103.128 E22.73168 F449
G1 X68.440 Y103.219 E22.73514 F1800
G1 X68.864 Y103.952 E22.76331 F505
G1 X68.916 Y104.042 E22.76677 F1800
G1 X69.364 Y104.819 E22.79661 F535
G1 X69.417 Y104.909 E22.80007 F1800
G1 X71.482 Y108.488 E22.93750 F600
G1 X71.535 Y108.578 E22.94097 F1800
G1 X71.937 Y109.275 E22.96775 F357
G1 X71.989 Y109.365 E22.97121 F1800
G1 X72.392 Y110.063 E22.99799 F357
G1 X72.444 Y110.153 E23.00146 F1800
G1 X72.803 Y110.774 E23.02532 F318
G1 X72.855 Y110.864 E23.02878 F1800
G1 X73.464 Y111.919 E23.06930 F357
G1 X73.516 Y112.010 E23.07276 F1800
G1 X74.540 Y113.784 E23.14090 F600
G1 X74.592 Y113.874 E23.14436 F1800
G1 X75.269 Y115.047 E23.18940 F600
G1 X75.321 Y115.137 E23.19287 F1800
G1 X76.039 Y116.379 E23.24059 F636
G1 X76.091 Y116.470 E23.24405 F1800
G1 X76.896 Y117.864 E23.29761 F714
G1 X76.948 Y117.954 E23.30108 F1800
G1 X78.315 Y120.323 E23.39203 F801
G1 X78.368 Y120.413 E23.39550 F1800
G1 X78.910 Y121.353 E23.43159 F318
G1 X78.962 Y121.443 E23.43505 F1800
G1 X79.229 Y121.905 E23.45280 F318
G1 X79.281 Y121.995 E23.45626 F1800
G1 X79.580 Y122.514 E23.47617 F357
G1 X79.632 Y122.604 E23.47964 F1800
G1 X79.968 Y123.186 E23.50199 F400
G1 X80.021 Y123.276 E23.50546 F1800
G1 X80.398 Y123.929 E23.53055 F449
G1 X80.450 Y124.020 E23.53401 F1800
G1 X81.263 Y125.428 E23.58809 F476
G1 X81.315 Y125.518 E23.59156 F1800
G1 X81.683 Y126.155 E23.61603 F318
G1 X82.724 Y127.959 E23.68532 F1800
G1 X83.628 Y129.525 E23.74544 F801
G1 X83.680 Y129.615 E23.74891 F1800
G1 X84.486 Y131.010 E23.80247 F714
G1 X84.538 Y131.100 E23.80593 F1800
G1 X85.255 Y132.342 E23.85365 F636
G1 X85.307 Y132.432 E23.85712 F1800
G1 X86.133 Y133.863 E23.91205 F714
G1 X86.393 Y134.314 E23.92937 F1800
G1 X86.862 Y135.125 E23.96054 F476
G1 X86.914 Y135.216 E23.96400 F1800
G1 X87.631 Y136.458 E24.01172 F636
G1 X87.683 Y136.548 E24.01519 F1800
G1 X89.228 Y139.225 E24.11797 F600
G1 X89.281 Y139.315 E24.12144 F1800
G1 X89.680 Y140.007 E24.14802 F476
G1 X89.732 Y140.097 E24.15148 F1800
G1 X90.766 Y141.887 E24.22023 F476
G1 X93.109 Y145.947 E24.37614 F1800
G1 X95.175 Y149.525 E24.51357 F600
G1 X95.228 Y149.615 E24.51703 F1800
G1 X95.676 Y150.392 E24.54687 F535
G1 X95.728 Y150.482 E24.55033 F1800
G1 X96.084 Y151.099 E24.57401 F424
G1 X96.136 Y151.189 E24.57748 F1800
G1 X96.585 Y151.966 E24.60732 F535
G1 X96.637 Y152.056 E24.61078 F1800
G1 X97.067 Y152.801 E24.63939 F600
G1 X97.068 Y152.803 E24.63946 F642
G1 X97.128 Y152.886 E24.64287 F642
G1 X97.130 Y152.887 E24.64294 F703
G1 X97.171 Y152.924 E24.64478 F703
G1 X97.206 Y152.956 E24.64634 F1800
G1 X97.208 Y152.957 E24.64641 F1800
G1 X97.256 Y152.984 E24.64825 F1800
G1 X97.297 Y153.008 E24.64982 F640
G1 X97.299 Y153.009 E24.64989 F582
G1 X97.396 Y153.040 E24.65330 F582
G1 X97.398 Y153.041 E24.65337 F557
G1 X97.500 Y153.051 E24.65677 F557
G1 X97.502 Y153.051 E24.65684 F557
G1 X97.604 Y153.040 E24.66025 F557
G1 X97.606 Y153.040 E24.66032 F582
G1 X97.703 Y153.008 E24.66373 F582
G1 X97.705 Y153.007 E24.66380 F640
G1 X97.794 Y152.956 E24.66720 F640
G1 X97.795 Y152.954 E24.66727 F745
G1 X97.872 Y152.886 E24.67068 F745
G1 X97.873 Y152.884 E24.67075 F680
G1 X97.933 Y152.801 E24.67416 F680
G1 X98.916 Y151.099 E24.73952 F636
G1 X98.914 Y150.981 F551
G1 X98.913 Y150.877 F1800
G1 X98.904 Y150.094 F347
G1 X98.903 Y149.990 F1800
G1 X98.873 Y147.460 F367
G1 X98.872 Y147.356 F1800
G1 X98.851 Y145.581 F520
G1 X98.849 Y145.477 F1800
G1 X98.831 Y143.897 F463
G1 X98.830 Y143.793 F1800
G1 X98.813 Y142.384 F412
G1 X98.812 Y142.280 F1800
G1 X98.804 Y141.588 F412
G1 X98.802 Y141.484 F1800
G1 X98.793 Y140.707 F463
G1 X98.792 Y140.603 F1800
G1 X98.764 Y138.227 F520
G1 X98.763 Y138.123 F1800
G1 X98.755 Y137.426 F309
G1 X98.753 Y137.322 F1800
G1 X98.725 Y134.933 F347
G1 X98.724 Y134.829 F1800
G1 X98.705 Y133.249 F463
G1 X98.704 Y133.144 F1800
G1 X98.688 Y131.736 F412
G1 X98.686 Y131.632 F1800
G1 X98.671 Y130.303 F389
G1 X98.669 Y130.199 F1800
G1 X98.662 Y129.546 F389
G1 X98.661 Y129.441 F1800
G1 X98.652 Y128.708 F437
G1 X98.651 Y128.604 F1800
G1 X98.624 Y126.362 F490
G1 X98.623 Y126.257 F1800
G1 X98.613 Y125.379 F389
G1 X98.611 Y125.275 F1800
G1 X98.596 Y123.946 F389
G1 X98.595 Y123.841 F1800
G1 X98.589 Y123.352 F292
G1 X98.588 Y123.248 F1800
G1 X98.581 Y122.699 F327
G1 X98.580 Y122.594 F1800
G1 X98.533 Y118.578 F583
G1 X98.531 Y118.474 F1800
G1 X98.510 Y116.699 F520
G1 X98.509 Y116.595 F1800
G1 X98.504 Y116.159 F260
G1 X98.503 Y116.055 F1800
G1 X98.498 Y115.619 F260
G1 X98.496 Y115.515 F1800
G1 X98.486 Y114.628 F260
G1 X98.485 Y114.524 F1800
G1 X98.480 Y114.088 F260
G1 X98.478 Y113.984 F1800
G1 X98.473 Y113.547 F260
G1 X98.472 Y113.443 F1800
G1 X98.459 Y112.326 F327
G1 X98.458 Y112.222 F1800
G1 X98.452 Y111.785 F260
G1 X98.451 Y111.681 F1800
G1 X98.446 Y111.245 F260
G1 X98.445 Y111.141 F1800
G1 X98.434 Y110.254 F260
G1 X98.433 Y110.150 F1800
G1 X98.423 Y109.263 F260
G1 X98.422 Y109.159 F1800
G1 X98.393 Y106.770 F347
G1 X98.392 Y106.666 F1800
G1 X98.385 Y106.080 F260
G1 X98.384 Y105.976 F1800
G1 X98.375 Y105.193 F347
G1 X98.374 Y105.089 F1800
G1 X98.365 Y104.391 F309
G1 X98.364 Y104.287 F1800
G1 X98.350 Y103.103 F347
G1 X98.349 Y102.999 F1800
G1 X98.335 Y101.815 F347
G1 X98.334 Y101.711 F1800
G1 X98.327 Y101.129 F347
G1 X98.326 Y101.025 F1800
G1 X98.318 Y100.371 F389
G1 X98.317 Y100.267 F1800
G1 X98.308 Y99.534 F437
G1 X98.307 Y99.430 F1800
G1 X98.298 Y98.653 F463
G1 X98.297 Y98.549 F1800
G1 X98.286 Y97.677 F520
G1 X98.285 Y97.572 F1800
G1 X98.266 Y95.981 F309
G1 X98.265 Y95.877 F1800
G1 X98.257 Y95.180 F309
G1 X98.256 Y95.075 F1800
G1 X98.247 Y94.378 F309
G1 X98.246 Y94.274 F1800
G1 X98.239 Y93.653 F275
G1 X98.238 Y93.549 F1800
G1 X98.225 Y92.494 F309
G1 X98.224 Y92.389 F1800
G1 X98.203 Y90.615 F520
G1 X98.202 Y90.511 F1800
G1 X98.188 Y89.338 F520
G1 X98.187 Y89.234 F1800
G1 X98.172 Y87.992 F551
G1 X98.171 Y87.888 F1800
G1 X98.154 Y86.493 F618
G1 X98.153 Y86.389 F1800
G1 X98.097 Y81.612 F694
G1 X98.096 Y81.508 F1800
G1 X98.088 Y80.887 F275
G1 X98.087 Y80.783 F1800
G1 X98.080 Y80.161 F275
G1 X98.079 Y80.057 F1800
G1 X98.072 Y79.504 F245
G1 X98.071 Y79.400 F1800
G1 X98.049 Y77.504 F275
G1 X98.047 Y77.400 F1800
G1 X97.980 Y71.719 F825
G1 X97.979 Y71.615 F1800
G1 X97.933 Y67.699 F779
G1 X97.932 Y67.697 E24.73959 F962
G1 X97.872 Y67.614 E24.74300 F962
G1 X97.870 Y67.613 E24.74307 F1054
G1 X97.794 Y67.544 E24.74648 F1054
G1 X97.792 Y67.543 E24.74655 F904
G1 X97.703 Y67.492 E24.74995 F904
G1 X97.701 Y67.491 E24.75002 F824
G1 X97.604 Y67.460 E24.75343 F824
G1 X97.602 Y67.459 E24.75350 F788
G1 X97.500 Y67.449 E24.75691 F788
G1 X97.498 Y67.449 E24.75698 F788
G1 X97.396 Y67.460 E24.76038 F788
G1 X97.394 Y67.460 E24.76045 F824
G1 X97.297 Y67.492 E24.76386 F824
G1 X97.295 Y67.493 E24.76393 F904
G1 X97.206 Y67.544 E24.76734 F904
G1 X97.205 Y67.546 E24.76741 F1054
G1 X97.128 Y67.614 E24.77081 F1054
G1 X97.127 Y67.616 E24.77088 F962
G1 X97.067 Y67.699 E24.77429 F962
G1 X96.757 Y68.236 E24.79492 F899
G1 X96.705 Y68.326 E24.79839 F1800
G1 X94.102 Y72.835 E24.97154 F756
G1 X94.050 Y72.925 E24.97500 F1800
G1 X93.017 Y74.714 E25.04372 F300
G1 X92.965 Y74.804 E25.04718 F1800
G1 X90.899 Y78.383 E25.18461 F600
G1 X90.847 Y78.473 E25.18808 F1800
G1 X90.295 Y79.429 E25.22478 F636
G1 X89.774 Y80.331 E25.25943 F1800
G1 X89.322 Y81.113 E25.28949 F400
G1 X89.270 Y81.204 E25.29295 F1800
G1 X88.733 Y82.134 E25.32870 F476
G1 X88.680 Y82.225 E25.33217 F1800
G1 X88.361 Y82.778 E25.35342 F283
G1 X88.309 Y82.868 E25.35689 F1800
G1 X87.857 Y83.651 E25.38695 F400
G1 X87.805 Y83.741 E25.39041 F1800
G1 X87.267 Y84.672 E25.42616 F476
G1 X87.215 Y84.762 E25.42963 F1800
G1 X86.240 Y86.451 E25.49448 F283
G1 X86.188 Y86.541 E25.49795 F1800
G1 X83.430 Y91.318 E25.68140 F801
G1 X83.378 Y91.408 E25.68486 F1800
G1 X80.775 Y95.917 E25.85801 F756
G1 X80.723 Y96.007 E25.86148 F1800
G1 X78.657 Y99.585 E25.99891 F600
G1 X78.605 Y99.675 E26.00237 F1800
G1 X77.572 Y101.465 E26.07109 F300
G1 X77.520 Y101.555 E26.07455 F1800
G1 X75.454 Y105.133 E26.21198 F600
G1 X75.402 Y105.223 E26.21544 F1800
G1 X74.850 Y106.179 E26.25215 F636
G1 X74.329 Y107.081 E26.28680 F1800
G1 X73.878 Y107.864 E26.31686 F400
G1 X73.825 Y107.954 E26.32032 F1800
G1 X73.416 Y108.664 E26.34758 F476
G1 X73.288 Y108.885 E26.35607 F476
G1 X73.236 Y108.975 E26.35954 F1800
G1 X72.933 Y109.500 E26.37969 F283
G1 X72.932 Y109.502 E26.37976 F268
G1 X72.920 Y109.529 E26.38073 F268
G1 X72.890 Y109.595 E26.38317 F1800
G1 X72.890 Y109.598 E26.38323 F1800
G1 X72.884 Y109.626 E26.38420 F1800
G1 X72.869 Y109.698 E26.38664 F355
G1 X72.869 Y109.700 E26.38671 F347
G1 X72.869 Y109.802 E26.39012 F347
G1 X72.869 Y109.804 E26.39019 F355
G1 X72.890 Y109.905 E26.39360 F355
G1 X72.891 Y109.906 E26.39366 F380
G1 X72.933 Y110.000 E26.39707 F380
G1 X72.934 Y110.002 E26.39714 F429
G1 X72.994 Y110.085 E26.40055 F429
G1 X72.996 Y110.086 E26.40062 F470
G1 X73.072 Y110.155 E26.40403 F470
G1 X73.074 Y110.156 E26.40409 F403
G1 X73.163 Y110.207 E26.40750 F403
G1 X73.165 Y110.207 E26.40757 F367
G1 X73.262 Y110.239 E26.41098 F367
G1 X73.264 Y110.239 E26.41105 F351
G1 X73.320 Y110.245 E26.41293 F351
G1 X73.366 Y110.250 E26.41445 F1800
G1 X73.424 Y110.250 E26.41640 F1800
G1 X74.361 Y110.250 E26.44754 F415
G1 X74.465 Y110.250 E26.45101 F1800
G1 X76.164 Y110.250 E26.50752 F247
G1 X76.268 Y110.250 E26.51099 F1800
G1 X81.074 Y110.250 E26.67083 F698
G1 X81.178 Y110.250 E26.67429 F1800
G1 X85.714 Y110.250 E26.82516 F659
G1 X85.819 Y110.250 E26.82863 F1800
G1 X86.998 Y110.250 E26.86787 F523
G1 X87.103 Y110.250 E26.87134 F1800
G1 X87.693 Y110.250 E26.89096 F261
G1 X87.797 Y110.250 E26.89442 F1800
G1 X88.387 Y110.250 E26.91404 F261
G1 X88.491 Y110.250 E26.91751 F1800
G1 X90.291 Y110.250 E26.97738 F261
G1 X90.395 Y110.250 E26.98085 F1800
G1 X93.423 Y110.250 E27.08154 F440
G1 X93.527 Y110.250 E27.08500 F1800
G1 X96.734 Y110.250 E27.19169 F466
G1 X96.838 Y110.250 E27.19515 F1800
G1 X97.673 Y110.250 E27.22290 F370
G1 X97.777 Y110.250 E27.22636 F1800
G1 X98.611 Y110.250 E27.25411 F370
G1 X98.715 Y110.250 E27.25758 F1800
G1 X99.503 Y110.250 E27.28377 F349
G1 X99.607 Y110.250 E27.28724 F1800
G1 X102.153 Y110.250 E27.37191 F370
G1 X102.257 Y110.250 E27.37537 F1800
G1 X106.071 Y110.250 E27.50224 F554
G1 X106.176 Y110.250 E27.50570 F1800
G1 X109.776 Y110.250 E27.62545 F523
G1 X109.880 Y110.250 E27.62891 F1800
G1 X110.816 Y110.250 E27.66006 F415
G1 X110.921 Y110.250 E27.66353 F1800
G1 X111.708 Y110.250 E27.68972 F349
G1 X111.812 Y110.250 E27.69318 F1800
G1 X112.514 Y110.250 E27.71652 F311
G1 X112.618 Y110.250 E27.71998 F1800
G1 X115.021 Y110.250 E27.79990 F349
G1 X115.125 Y110.250 E27.80337 F1800
G1 X117.528 Y110.250 E27.88329 F349
G1 X117.632 Y110.250 E27.88675 F1800
G1 X118.969 Y110.250 E27.93123 F392
G1 X119.074 Y110.250 E27.93470 F1800
G1 X119.731 Y110.250 E27.95656 F392
G1 X119.835 Y110.250 E27.96002 F1800
G1 X120.573 Y110.250 E27.98456 F440
G1 X120.669 Y110.250 E27.98775 F1800
G1 X120.677 Y110.250 E27.98803 F1800
G1 X121.634 Y110.250 E28.01985 F493
G1 X121.636 Y110.250 E28.01992 F496
G1 X121.738 Y110.239 E28.02333 F496
G1 X121.740 Y110.238 E28.02340 F519
G1 X121.837 Y110.207 E28.02681 F519
G1 X121.839 Y110.206 E28.02688 F570
G1 X121.928 Y110.155 E28.03028 F570
G1 X121.929 Y110.153 E28.03035 F664
G1 X122.006 Y110.085 E28.03376 F664
G1 X122.007 Y110.083 E28.03383 F606
G1 X122.067 Y110.000 E28.03724 F606
G1 X122.068 Y109.998 E28.03731 F537
G1 X122.109 Y109.905 E28.04071 F537
G1 X122.110 Y109.902 E28.04078 F501
G1 X122.131 Y109.802 E28.04419 F501
G1 X122.131 Y109.800 E28.04426 F490
G1 X122.131 Y109.698 E28.04767 F490
G1 X122.131 Y109.696 E28.04774 F501
G1 X122.109 Y109.595 E28.05114 F501
G1 X122.109 Y109.594 E28.05121 F537
G1 X122.067 Y109.500 E28.05462 F537
G1 X121.217 Y108.027 E28.11117 F566
G1 X121.165 Y107.937 E28.11464 F1800
G1 X120.397 Y106.608 E28.16568 F449
G1 X120.345 Y106.518 E28.16915 F1800
G1 X120.063 Y106.028 E28.18794 F337
G1 X120.011 Y105.938 E28.19141 F1800
G1 X119.693 Y105.389 E28.21251 F378
G1 X119.641 Y105.299 E28.21597 F1800
G1 X118.492 Y103.307 E28.29245 F673
G1 X118.440 Y103.217 E28.29592 F1800
G1 X117.672 Y101.888 E28.34696 F449
G1 X117.620 Y101.798 E28.35043 F1800
G1 X116.596 Y100.024 E28.41857 F600
G1 X116.544 Y99.933 E28.42203 F1800
G1 X116.292 Y99.497 E28.43878 F300
G1 X116.240 Y99.407 E28.44224 F1800
G1 X115.988 Y98.971 E28.45899 F300
G1 X115.936 Y98.881 E28.46245 F1800
G1 X115.424 Y97.994 E28.49652 F300
G1 X115.372 Y97.904 E28.49999 F1800
G1 X115.120 Y97.468 E28.51673 F300
G1 X115.068 Y97.377 E28.52020 F1800
G1 X114.816 Y96.941 E28.53694 F300
G1 X114.764 Y96.851 E28.54041 F1800
G1 X114.119 Y95.733 E28.58333 F378
G1 X114.067 Y95.643 E28.58679 F1800
G1 X113.815 Y95.207 E28.60354 F300
G1 X113.763 Y95.117 E28.60700 F1800
G1 X113.511 Y94.681 E28.62375 F300
G1 X113.459 Y94.591 E28.62722 F1800
G1 X112.884 Y93.595 E28.66546 F337
G1 X112.832 Y93.505 E28.66892 F1800
G1 X112.176 Y92.368 E28.71257 F378
G1 X110.797 Y89.980 E28.80430 F400
G1 X110.745 Y89.890 E28.80776 F1800
G1 X110.293 Y89.107 E28.83782 F400
G1 X110.241 Y89.017 E28.84129 F1800
G1 X109.789 Y88.234 E28.87135 F400
G1 X109.737 Y88.144 E28.87481 F1800
G1 X109.285 Y87.361 E28.90487 F400
G1 X109.233 Y87.271 E28.90834 F1800
G1 X108.202 Y85.485 E28.97694 F400
G1 X108.150 Y85.395 E28.98040 F1800
G1 X107.814 Y84.813 E29.00275 F400
G1 X107.762 Y84.722 E29.00622 F1800
G1 X107.310 Y83.940 E29.03628 F400
G1 X107.258 Y83.849 E29.03974 F1800
G1 X106.806 Y83.067 E29.06980 F400
G1 X106.754 Y82.976 E29.07327 F1800
G1 X106.302 Y82.194 E29.10333 F400
G1 X106.250 Y82.104 E29.10679 F1800
G1 X105.323 Y80.498 E29.16846 F400
G1 X104.920 Y79.801 E29.19524 F357
G1 X104.868 Y79.710 E29.19870 F1800
G1 X103.489 Y77.322 E29.29043 F400
G1 X103.437 Y77.232 E29.29389 F1800
G1 X102.518 Y75.641 E29.35501 F357
G1 X102.466 Y75.550 E29.35847 F1800
G1 X102.130 Y74.968 E29.38082 F400
G1 X102.078 Y74.878 E29.38429 F1800
G1 X101.626 Y74.095 E29.41435 F400
G1 X101.574 Y74.005 E29.41781 F1800
G1 X101.122 Y73.223 E29.44787 F400
G1 X101.070 Y73.132 E29.45134 F1800
G1 X100.618 Y72.350 E29.48140 F400
G1 X100.566 Y72.259 E29.48486 F1800
G1 X99.697 Y70.754 E29.54267 F400
G1 X99.437 Y70.303 E29.56000 F1800
G1 X99.034 Y69.606 E29.58678 F357
G1 X98.982 Y69.516 E29.59024 F1800
G1 X98.416 Y68.535 E29.62791 F400
G1 X97.933 Y67.699 E29.66002 F400
G1 Z0.600 F120
G1 X97.944 Y68.270 F347
G1 X97.946 Y68.374 F1800
G1 X97.975 Y69.792 F275
G1 X97.977 Y69.896 F1800
G1 X97.988 Y70.478 F347
G1 X97.990 Y70.582 F1800
G1 X98.006 Y71.365 F347
G1 X98.008 Y71.469 F1800
G1 X98.024 Y72.252 F347
G1 X98.026 Y72.356 F1800
G1 X98.041 Y73.139 F347
G1 X98.043 Y73.243 F1800
G1 X98.067 Y74.427 F347
G1 X98.069 Y74.531 F1800
G1 X98.078 Y74.967 F260
G1 X98.080 Y75.071 F1800
G1 X98.088 Y75.507 F260
G1 X98.091 Y75.612 F1800
G1 X98.108 Y76.499 F260
G1 X98.110 Y76.603 F1800
G1 X98.119 Y77.039 F260
G1 X98.121 Y77.143 F1800
G1 X98.130 Y77.579 F260
G1 X98.132 Y77.683 F1800
G1 X98.149 Y78.570 F260
G1 X98.152 Y78.674 F1800
G1 X98.160 Y79.110 F260
G1 X98.162 Y79.215 F1800
G1 X98.171 Y79.651 F260
G1 X98.173 Y79.755 F1800
G1 X98.191 Y80.642 F260
G1 X98.193 Y80.746 F1800
G1 X98.210 Y81.633 F260
G1 X98.212 Y81.737 F1800
G1 X98.260 Y84.125 F347
G1 X98.262 Y84.230 F1800
G1 X98.298 Y86.019 F260
G1 X98.300 Y86.123 F1800
G1 X98.323 Y87.307 F347
G1 X98.325 Y87.411 F1800
G1 X98.349 Y88.595 F347
G1 X98.351 Y88.699 F1800
G1 X98.363 Y89.281 F347
G1 X98.365 Y89.386 F1800
G1 X98.378 Y90.039 F389
G1 X98.380 Y90.143 F1800
G1 X98.394 Y90.876 F437
G1 X98.397 Y90.980 F1800
G1 X98.412 Y91.757 F463
G1 X98.414 Y91.862 F1800
G1 X98.485 Y95.440 F520
G1 X98.487 Y95.544 F1800
G1 X98.501 Y96.241 F309
G1 X98.503 Y96.346 F1800
G1 X98.517 Y97.043 F309
G1 X98.519 Y97.147 F1800
G1 X98.532 Y97.768 F275
G1 X98.534 Y97.872 F1800
G1 X98.555 Y98.927 F309
G1 X98.557 Y99.031 F1800
G1 X98.592 Y100.806 F520
G1 X98.594 Y100.910 F1800
G1 X98.618 Y102.083 F520
G1 X98.620 Y102.187 F1800
G1 X98.644 Y103.429 F551
G1 X98.646 Y103.533 F1800
G1 X98.674 Y104.928 F618
G1 X98.676 Y105.032 F1800
G1 X98.723 Y107.400 F694
G1 X98.725 Y107.504 F1800
G1 X98.744 Y108.444 F275
G1 X98.746 Y108.548 F1800
G1 X98.755 Y109.010 F275
G1 X98.758 Y109.115 F1800
G1 X98.768 Y109.633 F309
G1 X98.770 Y109.737 F1800
G1 X98.782 Y110.319 F347
G1 X98.784 Y110.423 F1800
G1 X98.797 Y111.077 F389
G1 X98.799 Y111.181 F1800
G1 X98.827 Y112.589 F413
G1 X98.829 Y112.693 F1800
G1 X98.841 Y113.330 F275
G1 X98.883 Y115.413 F1800
G1 X98.914 Y116.979 F694
G1 X98.916 Y117.083 F1800
G1 X98.944 Y118.477 F618
G1 X98.946 Y118.582 F1800
G1 X98.971 Y119.824 F551
G1 X98.973 Y119.928 F1800
G1 X99.001 Y121.359 F618
G1 X99.012 Y121.879 F1800
G1 X99.028 Y122.691 F413
G1 X99.030 Y122.795 F1800
G1 X99.055 Y124.037 F551
G1 X99.057 Y124.142 F1800
G1 X99.110 Y126.818 F520
G1 X99.112 Y126.922 F1800
G1 X99.126 Y127.614 F413
G1 X99.128 Y127.718 F1800
G1 X99.164 Y129.508 F413
G1 X99.257 Y134.195 F1800
G1 X99.328 Y137.773 F520
G1 X99.330 Y137.877 F1800
G1 X99.346 Y138.654 F463
G1 X99.348 Y138.759 F1800
G1 X99.360 Y139.375 F367
G1 X99.362 Y139.479 F1800
G1 X99.378 Y140.256 F463
G1 X99.380 Y140.360 F1800
G1 X99.397 Y141.232 F520
G1 X99.399 Y141.337 F1800
G1 X99.449 Y143.853 F551
G1 X99.451 Y143.958 F1800
G1 X99.467 Y144.740 F347
G1 X99.469 Y144.844 F1800
G1 X99.519 Y147.375 F367
G1 X99.521 Y147.479 F1800
G1 X99.557 Y149.253 F520
G1 X99.559 Y149.357 F1800
G1 X99.571 Y149.965 F463
G1 X100.133 Y148.991 E29.69740 F535
G1 X100.185 Y148.901 E29.70086 F1800
G1 X100.998 Y147.493 E29.75494 F476
G1 X101.050 Y147.403 E29.75841 F1800
G1 X101.449 Y146.711 E29.78499 F476
G1 X101.502 Y146.620 E29.78845 F1800
G1 X101.950 Y145.843 E29.81829 F535
G1 X102.002 Y145.753 E29.82176 F1800
G1 X103.374 Y143.378 E29.91299 F600
G1 X103.426 Y143.287 E29.91646 F1800
G1 X103.828 Y142.590 E29.94324 F357
G1 X103.881 Y142.500 E29.94670 F1800
G1 X105.259 Y140.112 E30.03842 F400
G1 X105.311 Y140.021 E30.04189 F1800
G1 X106.224 Y138.441 E30.10259 F535
G1 X106.276 Y138.351 E30.10606 F1800
G1 X107.089 Y136.942 E30.16014 F476
G1 X107.141 Y136.852 E30.16360 F1800
G1 X107.909 Y135.523 E30.21465 F449
G1 X107.961 Y135.433 E30.21811 F1800
G1 X108.338 Y134.780 E30.24320 F449
G1 X108.390 Y134.689 E30.24667 F1800
G1 X108.813 Y133.956 E30.27483 F505
G1 X108.865 Y133.866 E30.27830 F1800
G1 X110.160 Y131.624 E30.36441 F566
G1 X110.212 Y131.533 E30.36787 F1800
G1 X110.719 Y130.655 E30.40162 F449
G1 X110.771 Y130.565 E30.40508 F1800
G1 X111.539 Y129.235 E30.45613 F449
G1 X111.591 Y129.145 E30.45959 F1800
G1 X111.873 Y128.656 E30.47839 F337
G1 X111.925 Y128.566 E30.48185 F1800
G1 X112.243 Y128.016 E30.50295 F378
G1 X112.295 Y127.926 E30.50642 F1800
G1 X114.614 Y123.909 E30.66068 F673
G1 X114.666 Y123.819 E30.66414 F1800
G1 X115.690 Y122.045 E30.73228 F600
G1 X115.742 Y121.955 E30.73574 F1800
G1 X115.994 Y121.519 E30.75249 F300
G1 X116.046 Y121.429 E30.75595 F1800
G1 X116.298 Y120.993 E30.77270 F300
G1 X116.350 Y120.902 E30.77616 F1800
G1 X116.862 Y120.015 E30.81023 F300
G1 X116.914 Y119.925 E30.81370 F1800
G1 X117.166 Y119.489 E30.83044 F300
G1 X117.218 Y119.399 E30.83391 F1800
G1 X117.470 Y118.963 E30.85065 F300
G1 X117.522 Y118.873 E30.85412 F1800
G1 X118.167 Y117.755 E30.89704 F378
G1 X118.219 Y117.665 E30.90051 F1800
G1 X118.471 Y117.229 E30.91725 F300
G1 X118.523 Y117.139 E30.92072 F1800
G1 X118.775 Y116.703 E30.93746 F300
G1 X118.827 Y116.612 E30.94093 F1800
G1 X119.339 Y115.725 E30.97499 F300
G1 X119.391 Y115.635 E30.97846 F1800
G1 X119.903 Y114.748 E31.01253 F300
G1 X119.955 Y114.658 E31.01599 F1800
G1 X121.334 Y112.269 E31.10772 F400
G1 X121.386 Y112.179 E31.11118 F1800
G1 X121.725 Y111.593 E31.13370 F300
G1 X121.777 Y111.503 E31.13717 F1800
G1 X122.229 Y110.720 E31.16723 F400
G1 X122.281 Y110.630 E31.17069 F1800
G1 X122.683 Y109.932 E31.19747 F357
G1 X122.735 Y109.842 E31.20094 F1800
G1 X123.419 Y108.658 E31.24641 F400
G1 X123.471 Y108.568 E31.24988 F1800
G1 X124.155 Y107.384 E31.29535 F400
G1 X124.207 Y107.294 E31.29882 F1800
G1 X124.543 Y106.712 E31.32117 F400
G1 X124.595 Y106.621 E31.32464 F1800
G1 X124.972 Y105.968 E31.34973 F449
G1 X125.024 Y105.878 E31.35319 F1800
G1 X125.448 Y105.144 E31.38135 F505
G1 X125.500 Y105.054 E31.38482 F1800
G1 X125.948 Y104.277 E31.41466 F535
G1 X126.000 Y104.187 E31.41812 F1800
G1 X126.504 Y103.315 E31.45161 F600
G1 X126.556 Y103.225 E31.45508 F1800
G1 X127.475 Y101.634 E31.51619 F357
G1 X127.527 Y101.543 E31.51966 F1800
G1 X127.929 Y100.846 E31.54644 F357
G1 X127.981 Y100.756 E31.54990 F1800
G1 X128.384 Y100.059 E31.57668 F357
G1 X128.436 Y99.968 E31.58015 F1800
G1 X128.795 Y99.347 E31.60401 F318
G1 X128.847 Y99.257 E31.60747 F1800
G1 X129.456 Y98.202 E31.64799 F357
G1 X129.508 Y98.112 E31.65145 F1800
G1 X130.532 Y96.338 E31.71959 F600
G1 X130.584 Y96.247 E31.72305 F1800
G1 X131.262 Y95.075 E31.76809 F600
G1 X131.314 Y94.984 E31.77156 F1800
G1 X132.031 Y93.742 E31.81928 F636
G1 X132.083 Y93.652 E31.82274 F1800
G1 X132.888 Y92.257 E31.87630 F714
G1 X132.940 Y92.167 E31.87977 F1800
G1 X135.698 Y87.390 E32.06321 F801
G1 X135.750 Y87.300 E32.06668 F1800
G1 X136.109 Y86.679 E32.09054 F318
G1 X136.161 Y86.589 E32.09400 F1800
G1 X136.520 Y85.967 E32.11786 F318
G1 X136.572 Y85.877 E32.12133 F1800
G1 X136.891 Y85.324 E32.14258 F283
G1 X136.943 Y85.233 E32.14605 F1800
G1 X138.038 Y83.338 E32.21885 F318
G1 X138.090 Y83.248 E32.22231 F1800
G1 X141.369 Y77.567 E32.44047 F952
G1 X141.421 Y77.477 E32.44393 F1800
G1 X144.517 Y72.116 E32.64985 F899
G1 X144.569 Y72.025 E32.65331 F1800
G1 X147.067 Y67.699 E32.81948 F756
G1 X147.068 Y67.696 E32.81959 F717
G1 X147.109 Y67.603 E32.82295 F717
G1 X147.110 Y67.600 E32.82307 F669
G1 X147.128 Y67.517 E32.82589 F669
G1 X147.131 Y67.501 E32.82643 F1800
G1 X147.131 Y67.498 E32.82655 F1800
G1 X147.131 Y67.413 E32.82936 F1800
G1 X147.131 Y67.396 E32.82991 F260
G1 X147.131 Y67.393 E32.83002 F266
G1 X147.109 Y67.294 E32.83338 F266
G1 X147.108 Y67.291 E32.83350 F284
G1 X147.067 Y67.199 E32.83686 F284
G1 X147.065 Y67.196 E32.83698 F321
G1 X147.006 Y67.114 E32.84034 F321
G1 X147.003 Y67.112 E32.84045 F352
G1 X146.928 Y67.044 E32.84381 F352
G1 X146.925 Y67.042 E32.84393 F302
G1 X146.837 Y66.992 E32.84729 F302
G1 X146.834 Y66.991 E32.84741 F275
G1 X146.738 Y66.960 E32.85077 F275
G1 X146.734 Y66.959 E32.85088 F263
G1 X146.634 Y66.949 E32.85424 F263
G1 X145.506 Y66.949 E32.89176 F261
G1 X145.402 Y66.949 E32.89522 F1800
G1 X143.358 Y66.949 E32.96319 F523
G1 X141.802 Y66.949 E33.01497 F523
G1 X141.697 Y66.949 E33.01843 F1800
G1 X140.736 Y66.949 E33.05041 F554
G1 X139.694 Y66.949 E33.08506 F1800
G1 X138.907 Y66.949 E33.11125 F349
G1 X138.803 Y66.949 E33.11472 F1800
G1 X137.866 Y66.949 E33.14587 F415
G1 X137.762 Y66.949 E33.14933 F1800
G1 X137.205 Y66.949 E33.16785 F247
G1 X137.101 Y66.949 E33.17132 F1800
G1 X136.313 Y66.949 E33.19751 F349
G1 X136.209 Y66.949 E33.20097 F1800
G1 X135.273 Y66.949 E33.23212 F415
G1 X135.169 Y66.949 E33.23559 F1800
G1 X133.469 Y66.949 E33.29210 F247
G1 X133.365 Y66.949 E33.29556 F1800
G1 X128.559 Y66.949 E33.45540 F698
G1 X128.455 Y66.949 E33.45887 F1800
G1 X123.919 Y66.949 E33.60974 F659
G1 X123.815 Y66.949 E33.61320 F1800
G1 X120.215 Y66.949 E33.73295 F523
G1 X120.111 Y66.949 E33.73641 F1800
G1 X118.310 Y66.949 E33.79629 F261
G1 X118.206 Y66.949 E33.79975 F1800
G1 X114.606 Y66.949 E33.91950 F523
G1 X114.502 Y66.949 E33.92296 F1800
G1 X113.540 Y66.949 E33.95494 F554
G1 X112.499 Y66.949 E33.98959 F1800
G1 X111.711 Y66.949 E34.01578 F349
G1 X111.607 Y66.949 E34.01925 F1800
G1 X110.670 Y66.949 E34.05039 F415
G1 X110.566 Y66.949 E34.05386 F1800
G1 X110.009 Y66.949 E34.07238 F247
G1 X109.905 Y66.949 E34.07585 F1800
G1 X109.118 Y66.949 E34.10204 F349
G1 X109.014 Y66.949 E34.10550 F1800
G1 X108.077 Y66.949 E34.13665 F415
G1 X107.973 Y66.949 E34.14011 F1800
G1 X106.274 Y66.949 E34.19663 F247
G1 X106.170 Y66.949 E34.20009 F1800
G1 X101.364 Y66.949 E34.35993 F698
G1 X101.260 Y66.949 E34.36340 F1800
G1 X96.724 Y66.949 E34.51427 F659
G1 X96.619 Y66.949 E34.51773 F1800
G1 X95.440 Y66.949 E34.55698 F523
G1 X95.335 Y66.949 E34.56044 F1800
G1 X94.745 Y66.949 E34.58006 F261
G1 X94.641 Y66.949 E34.58353 F1800
G1 X94.051 Y66.949 E34.60315 F261
G1 X93.947 Y66.949 E34.60661 F1800
G1 X92.147 Y66.949 E34.66649 F261
G1 X92.043 Y66.949 E34.66995 F1800
G1 X89.015 Y66.949 E34.77065 F440
G1 X88.911 Y66.949 E34.77411 F1800
G1 X85.704 Y66.949 E34.88079 F466
G1 X85.600 Y66.949 E34.88426 F1800
G1 X84.765 Y66.949 E34.91201 F370
G1 X84.661 Y66.949 E34.91547 F1800
G1 X83.827 Y66.949 E34.94322 F370
G1 X83.723 Y66.949 E34.94669 F1800
G1 X82.935 Y66.949 E34.97288 F349
G1 X82.831 Y66.949 E34.97634 F1800
G1 X80.285 Y66.949 E35.06101 F370
G1 X80.181 Y66.949 E35.06448 F1800
G1 X76.367 Y66.949 E35.19135 F554
G1 X76.262 Y66.949 E35.19481 F1800
G1 X72.662 Y66.949 E35.31456 F523
G1 X72.558 Y66.949 E35.31802 F1800
G1 X71.621 Y66.949 E35.34917 F415
G1 X71.517 Y66.949 E35.35263 F1800
G1 X70.730 Y66.949 E35.37883 F349
G1 X70.626 Y66.949 E35.38229 F1800
G1 X69.924 Y66.949 E35.40563 F311
G1 X69.820 Y66.949 E35.40909 F1800
G1 X67.417 Y66.949 E35.48901 F349
G1 X67.313 Y66.949 E35.49247 F1800
G1 X64.910 Y66.949 E35.57240 F349
G1 X64.806 Y66.949 E35.57586 F1800
G1 X63.469 Y66.949 E35.62034 F392
G1 X63.364 Y66.949 E35.62380 F1800
G1 X62.707 Y66.949 E35.64566 F392
G1 X62.603 Y66.949 E35.64913 F1800
G1 X61.865 Y66.949 E35.67367 F440
G1 X61.761 Y66.949 E35.67713 F1800
G1 X58.363 Y66.949 E35.79016 F493
G1 X58.259 Y66.949 E35.79362 F1800
G1 X56.921 Y66.949 E35.83810 F392
G1 X56.817 Y66.949 E35.84156 F1800
G1 X56.325 Y66.949 E35.85794 F293
G1 X56.221 Y66.949 E35.86140 F1800
G1 X55.668 Y66.949 E35.87979 F329
G1 X55.564 Y66.949 E35.88325 F1800
G1 X53.560 Y66.949 E35.94989 F587
G1 X53.456 Y66.949 E35.95336 F1800
G1 X52.119 Y66.949 E35.99783 F392
G1 X52.015 Y66.949 E36.00130 F1800
G1 X50.230 Y66.949 E36.06067 F523
G1 X50.125 Y66.949 E36.06413 F1800
G1 X49.687 Y66.949 E36.07872 F261
G1 X49.582 Y66.949 E36.08219 F1800
G1 X49.144 Y66.949 E36.09678 F261
G1 X49.040 Y66.949 E36.10024 F1800
G1 X48.366 Y66.949 E36.12265 F261
G1 X48.363 Y66.949 E36.12276 F263
G1 X48.262 Y66.960 E36.12612 F263
G1 X48.259 Y66.961 E36.12624 F275
G1 X48.163 Y66.992 E36.12960 F275
G1 X48.160 Y66.994 E36.12972 F302
G1 X48.147 Y67.001 E36.13020 F302
G1 X48.072 Y67.044 E36.13308 F1800
G1 X48.070 Y67.047 E36.13319 F1800
G1 X48.059 Y67.056 E36.13366 F1800
G1 X47.994 Y67.114 E36.13655 F352
G1 X47.992 Y67.117 E36.13667 F321
G1 X47.933 Y67.199 E36.14003 F321
G1 X47.932 Y67.202 E36.14015 F284
G1 X47.890 Y67.294 E36.14351 F284
G1 X47.890 Y67.298 E36.14362 F266
G1 X47.869 Y67.396 E36.14698 F266
G1 X47.869 Y67.400 E36.14710 F260
G1 X47.869 Y67.486 E36.14996 F260
G1 X47.869 Y67.501 E36.15046 F1800
G1 X47.869 Y67.504 E36.15058 F1800
G1 X47.887 Y67.588 E36.15343 F1800
G1 X47.890 Y67.603 E36.15394 F266
G1 X47.892 Y67.606 E36.15405 F284
G1 X47.933 Y67.699 E36.15741 F284
G1 X48.121 Y68.024 E36.16991 F300
G1 X48.173 Y68.114 E36.17338 F1800
G1 X48.818 Y69.232 E36.21630 F378
G1 X48.870 Y69.322 E36.21977 F1800
G1 X49.122 Y69.758 E36.23651 F300
G1 X49.174 Y69.848 E36.23998 F1800
G1 X49.426 Y70.285 E36.25672 F300
G1 X49.478 Y70.375 E36.26019 F1800
G1 X49.571 Y70.535 E36.26636 F337
G1 X50.053 Y71.370 E36.29843 F337
G1 X50.105 Y71.461 E36.30189 F1800
G1 X50.761 Y72.597 E36.34554 F378
G1 X52.140 Y74.986 E36.43727 F400
G1 X52.192 Y75.076 E36.44073 F1800
G1 X52.644 Y75.858 E36.47079 F400
G1 X52.696 Y75.949 E36.47426 F1800
G1 X53.148 Y76.731 E36.50432 F400
G1 X53.200 Y76.822 E36.50778 F1800
G1 X53.652 Y77.604 E36.53784 F400
G1 X53.704 Y77.695 E36.54131 F1800
G1 X54.735 Y79.481 E36.60991 F400
G1 X54.787 Y79.571 E36.61337 F1800
G1 X55.123 Y80.153 E36.63573 F400
G1 X55.176 Y80.243 E36.63919 F1800
G1 X55.627 Y81.026 E36.66925 F400
G1 X55.680 Y81.116 E36.67272 F1800
G1 X56.131 Y81.899 E36.70278 F400
G1 X56.184 Y81.989 E36.70624 F1800
G1 X56.635 Y82.772 E36.73630 F400
G1 X56.688 Y82.862 E36.73977 F1800
G1 X57.615 Y84.468 E36.80143 F400
G1 X58.017 Y85.165 E36.82821 F357
G1 X58.069 Y85.255 E36.83168 F1800
G1 X59.448 Y87.643 E36.92340 F400
G1 X59.500 Y87.734 E36.92686 F1800
G1 X60.419 Y89.325 E36.98798 F357
G1 X60.471 Y89.415 E36.99144 F1800
G1 X60.807 Y89.997 E37.01380 F400
G1 X60.859 Y90.087 E37.01726 F1800
G1 X61.311 Y90.870 E37.04732 F400
G1 X61.363 Y90.960 E37.05079 F1800
G1 X61.815 Y91.743 E37.08085 F400
G1 X61.867 Y91.833 E37.08431 F1800
G1 X62.319 Y92.616 E37.11437 F400
G1 X62.371 Y92.706 E37.11784 F1800
G1 X63.240 Y94.211 E37.17565 F400
G1 X63.501 Y94.662 E37.19297 F1800
G1 X63.903 Y95.360 E37.21975 F357
G1 X63.955 Y95.450 E37.22321 F1800
G1 X65.334 Y97.838 E37.31494 F400
G1 X65.386 Y97.928 E37.31840 F1800
G1 X66.205 Y99.346 E37.37285 F318
G1 X66.257 Y99.436 E37.37632 F1800
G1 X66.593 Y100.018 E37.39867 F400
G1 X66.645 Y100.109 E37.40213 F1800
G1 X67.097 Y100.891 E37.43219 F400
G1 X67.149 Y100.982 E37.43566 F1800
G1 X67.601 Y101.764 E37.46572 F400
G1 X67.653 Y101.854 E37.46918 F1800
G1 X68.105 Y102.637 E37.49924 F400
G1 X68.157 Y102.727 E37.50271 F1800
G1 X68.840 Y103.912 E37.54819 F400
G1 X68.893 Y104.002 E37.55165 F1800
G1 X69.144 Y104.438 E37.56840 F300
G1 X69.196 Y104.528 E37.57186 F1800
G1 X69.448 Y104.964 E37.58861 F300
G1 X69.500 Y105.054 E37.59207 F1800
G1 X70.012 Y105.941 E37.62614 F300
G1 X70.064 Y106.032 E37.62960 F1800
G1 X70.316 Y106.468 E37.64635 F300
G1 X70.368 Y106.558 E37.64981 F1800
G1 X70.620 Y106.994 E37.66656 F300
G1 X70.672 Y107.084 E37.67002 F1800
G1 X71.184 Y107.971 E37.70409 F300
G1 X71.236 Y108.061 E37.70756 F1800
G1 X71.488 Y108.497 E37.72430 F300
G1 X71.540 Y108.587 E37.72777 F1800
G1 X71.792 Y109.024 E37.74451 F300
G1 X71.844 Y109.114 E37.74798 F1800
G1 X72.356 Y110.001 E37.78205 F300
G1 X72.408 Y110.091 E37.78551 F1800
G1 X72.920 Y110.978 E37.81958 F300
G1 X72.972 Y111.068 E37.82305 F1800
G1 X74.351 Y113.457 E37.91477 F400
G1 X74.403 Y113.547 E37.91823 F1800
G1 X75.436 Y115.336 E37.98695 F300
G1 X75.488 Y115.426 E37.99041 F1800
G1 X76.172 Y116.610 E38.03589 F400
G1 X76.224 Y116.701 E38.03935 F1800
G1 X76.908 Y117.885 E38.08483 F400
G1 X76.960 Y117.975 E38.08830 F1800
G1 X77.296 Y118.557 E38.11065 F400
G1 X77.348 Y118.647 E38.11411 F1800
G1 X77.725 Y119.300 E38.13920 F449
G1 X77.777 Y119.391 E38.14267 F1800
G1 X78.201 Y120.124 E38.17083 F505
G1 X78.253 Y120.214 E38.17429 F1800
G1 X78.701 Y120.991 E38.20413 F535
G1 X78.753 Y121.081 E38.20760 F1800
G1 X80.819 Y124.660 E38.34503 F600
G1 X80.871 Y124.750 E38.34849 F1800
G1 X81.274 Y125.447 E38.37527 F357
G1 X81.326 Y125.537 E38.37874 F1800
G1 X81.729 Y126.235 E38.40552 F357
G1 X81.781 Y126.325 E38.40898 F1800
G1 X82.140 Y126.946 E38.43284 F318
G1 X82.192 Y127.036 E38.43631 F1800
G1 X82.801 Y128.091 E38.47682 F357
G1 X82.853 Y128.182 E38.48029 F1800
G1 X83.877 Y129.956 E38.54842 F600
G1 X83.929 Y130.046 E38.55189 F1800
G1 X84.606 Y131.219 E38.59693 F600
G1 X84.658 Y131.309 E38.60039 F1800
G1 X85.376 Y132.551 E38.64811 F636
G1 X85.428 Y132.642 E38.65158 F1800
G1 X86.233 Y134.036 E38.70514 F714
G1 X86.285 Y134.126 E38.70860 F1800
G1 X87.652 Y136.495 E38.79956 F801
G1 X87.704 Y136.585 E38.80302 F1800
G1 X88.247 Y137.525 E38.83911 F318
G1 X88.299 Y137.615 E38.84258 F1800
G1 X88.566 Y138.077 E38.86032 F318
G1 X88.618 Y138.167 E38.86379 F1800
G1 X88.917 Y138.686 E38.88370 F357
G1 X88.969 Y138.776 E38.88716 F1800
G1 X89.305 Y139.358 E38.90952 F400
G1 X89.357 Y139.448 E38.91298 F1800
G1 X89.735 Y140.101 E38.93807 F449
G1 X89.787 Y140.192 E38.94154 F1800
G1 X90.600 Y141.600 E38.99562 F476
G1 X90.652 Y141.690 E38.99908 F1800
G1 X91.020 Y142.327 E39.02355 F318
G1 X92.061 Y144.131 E39.09284 F1800
G1 X92.965 Y145.697 E39.15297 F801
G1 X93.017 Y145.787 E39.15643 F1800
G1 X93.822 Y147.182 E39.20999 F714
G1 X93.875 Y147.272 E39.21346 F1800
G1 X94.592 Y148.514 E39.26118 F636
G1 X94.644 Y148.604 E39.26464 F1800
G1 X95.470 Y150.035 E39.31958 F714
G1 X95.730 Y150.486 E39.33690 F1800
G1 X96.199 Y151.297 E39.36806 F476
G1 X96.251 Y151.388 E39.37153 F1800
G1 X96.968 Y152.630 E39.41925 F636
G1 X97.020 Y152.720 E39.42271 F1800
G1 X97.067 Y152.801 E39.42582 F600
G1 X97.069 Y152.804 E39.42594 F642
G1 X97.128 Y152.886 E39.42930 F642
G1 X97.131 Y152.888 E39.42941 F703
G1 X97.206 Y152.956 E39.43277 F703
G1 X97.209 Y152.958 E39.43289 F604
G1 X97.297 Y153.008 E39.43625 F604
G1 X97.300 Y153.009 E39.43637 F550
G1 X97.396 Y153.040 E39.43973 F550
G1 X97.400 Y153.041 E39.43984 F526
G1 X97.500 Y153.051 E39.44320 F526
G1 X97.503 Y153.051 E39.44332 F526
G1 X97.604 Y153.040 E39.44668 F526
G1 X97.607 Y153.039 E39.44680 F550
G1 X97.703 Y153.008 E39.45016 F550
G1 X97.706 Y153.006 E39.45027 F604
G1 X97.794 Y152.956 E39.45363 F604
G1 X97.796 Y152.953 E39.45375 F703
G1 X97.872 Y152.886 E39.45711 F703
G1 X97.874 Y152.883 E39.45723 F642
G1 X97.933 Y152.801 E39.46059 F642
G1 X98.907 Y151.114 E39.52540 F600
G1 X98.959 Y151.023 E39.52886 F1800
G1 X99.359 Y150.331 E39.55545 F476
G1 X99.411 Y150.241 E39.55891 F1800
G1 X99.571 Y149.965 E39.56953 F476
G1 X99.541 Y148.451 F413
G1 X99.447 Y143.765 F1800
G1 X99.376 Y140.186 F520
G1 X99.374 Y140.082 F1800
G1 X99.359 Y139.305 F463
G1 X99.357 Y139.201 F1800
G1 X99.344 Y138.584 F367
G1 X99.342 Y138.480 F1800
G1 X99.327 Y137.703 F463
G1 X99.325 Y137.599 F1800
G1 X99.307 Y136.727 F520
G1 X99.305 Y136.623 F1800
G1 X99.255 Y134.106 F551
G1 X99.253 Y134.002 F1800
G1 X99.237 Y133.219 F347
G1 X99.235 Y133.115 F1800
G1 X99.185 Y130.585 F367
G1 X99.183 Y130.481 F1800
G1 X99.148 Y128.706 F520
G1 X99.146 Y128.602 F1800
G1 X99.114 Y127.022 F463
G1 X99.112 Y126.918 F1800
G1 X99.084 Y125.509 F413
G1 X99.082 Y125.405 F1800
G1 X99.068 Y124.713 F413
G1 X99.066 Y124.609 F1800
G1 X99.051 Y123.832 F463
G1 X99.048 Y123.728 F1800
G1 X99.001 Y121.352 F520
G1 X98.999 Y121.248 F1800
G1 X98.985 Y120.551 F309
G1 X98.983 Y120.447 F1800
G1 X98.936 Y118.058 F347
G1 X98.934 Y117.954 F1800
G1 X98.902 Y116.374 F463
G1 X98.900 Y116.270 F1800
G1 X98.872 Y114.861 F413
G1 X98.870 Y114.757 F1800
G1 X98.843 Y113.428 F389
G1 X98.841 Y113.324 F1800
G1 X98.828 Y112.671 F389
G1 X98.826 Y112.567 F1800
G1 X98.812 Y111.833 F437
G1 X98.810 Y111.729 F1800
G1 X98.765 Y109.487 F491
G1 X98.763 Y109.383 F1800
G1 X98.745 Y108.504 F389
G1 X98.743 Y108.400 F1800
G1 X98.717 Y107.071 F389
G1 X98.715 Y106.967 F1800
G1 X98.705 Y106.477 F292
G1 X98.703 Y106.373 F1800
G1 X98.692 Y105.824 F327
G1 X98.690 Y105.720 F1800
G1 X98.610 Y101.703 F583
G1 X98.608 Y101.599 F1800
G1 X98.573 Y99.825 F520
G1 X98.571 Y99.721 F1800
G1 X98.562 Y99.285 F260
G1 X98.560 Y99.180 F1800
G1 X98.551 Y98.744 F260
G1 X98.549 Y98.640 F1800
G1 X98.531 Y97.753 F260
G1 X98.529 Y97.649 F1800
G1 X98.521 Y97.213 F260
G1 X98.519 Y97.109 F1800
G1 X98.510 Y96.673 F260
G1 X98.508 Y96.569 F1800
G1 X98.486 Y95.451 F327
G1 X98.483 Y95.347 F1800
G1 X98.475 Y94.911 F260
G1 X98.473 Y94.807 F1800
G1 X98.464 Y94.371 F260
G1 X98.462 Y94.267 F1800
G1 X98.444 Y93.379 F260
G1 X98.442 Y93.275 F1800
G1 X98.425 Y92.388 F260
G1 X98.422 Y92.284 F1800
G1 X98.375 Y89.896 F347
G1 X98.373 Y89.792 F1800
G1 X98.361 Y89.205 F260
G1 X98.359 Y89.101 F1800
G1 X98.344 Y88.318 F347
G1 X98.341 Y88.214 F1800
G1 X98.328 Y87.517 F309
G1 X98.325 Y87.413 F1800
G1 X98.302 Y86.229 F347
G1 X98.300 Y86.125 F1800
G1 X98.276 Y84.940 F347
G1 X98.274 Y84.836 F1800
G1 X98.263 Y84.254 F347
G1 X98.261 Y84.150 F1800
G1 X98.248 Y83.497 F389
G1 X98.245 Y83.393 F1800
G1 X98.231 Y82.659 F437
G1 X98.229 Y82.555 F1800
G1 X98.213 Y81.778 F463
G1 X98.211 Y81.674 F1800
G1 X98.194 Y80.802 F520
G1 X98.192 Y80.698 F1800
G1 X98.160 Y79.107 F309
G1 X98.158 Y79.002 F1800
G1 X98.144 Y78.305 F309
G1 X98.142 Y78.201 F1800
G1 X98.128 Y77.504 F309
G1 X98.126 Y77.400 F1800
G1 X98.114 Y76.778 F275
G1 X98.112 Y76.674 F1800
G1 X98.091 Y75.619 F309
G1 X98.089 Y75.515 F1800
G1 X98.053 Y73.741 F520
G1 X98.051 Y73.637 F1800
G1 X98.028 Y72.464 F520
G1 X98.026 Y72.360 F1800
G1 X98.001 Y71.117 F551
G1 X97.999 Y71.013 F1800
G1 X97.971 Y69.619 F618
G1 X97.969 Y69.514 F1800
G1 X97.933 Y67.699 F694
G1 X97.931 Y67.696 E39.56965 F857
G1 X97.872 Y67.614 E39.57301 F857
G1 X97.869 Y67.612 E39.57313 F939
G1 X97.794 Y67.544 E39.57649 F939
G1 X97.791 Y67.542 E39.57660 F806
G1 X97.703 Y67.492 E39.57996 F806
G1 X97.700 Y67.491 E39.58008 F734
G1 X97.604 Y67.460 E39.58344 F734
G1 X97.600 Y67.459 E39.58356 F702
G1 X97.500 Y67.449 E39.58692 F702
G1 X97.497 Y67.449 E39.58703 F702
G1 X97.396 Y67.460 E39.59039 F702
G1 X97.393 Y67.461 E39.59051 F734
G1 X97.297 Y67.492 E39.59387 F734
G1 X97.294 Y67.494 E39.59399 F806
G1 X97.206 Y67.544 E39.59735 F806
G1 X97.204 Y67.547 E39.59746 F939
G1 X97.128 Y67.614 E39.60082 F939
G1 X97.126 Y67.617 E39.60094 F857
G1 X97.067 Y67.699 E39.60430 F857
G1 X95.882 Y69.752 E39.68315 F801
G1 X95.830 Y69.842 E39.68661 F1800
G1 X95.471 Y70.463 E39.71047 F318
G1 X95.419 Y70.554 E39.71394 F1800
G1 X95.060 Y71.175 E39.73780 F318
G1 X95.008 Y71.265 E39.74126 F1800
G1 X94.688 Y71.818 E39.76252 F283
G1 X94.636 Y71.909 E39.76598 F1800
G1 X93.542 Y73.804 E39.83878 F318
G1 X93.490 Y73.894 E39.84225 F1800
G1 X90.210 Y79.575 E40.06041 F952
G1 X90.158 Y79.665 E40.06387 F1800
G1 X87.063 Y85.027 E40.26978 F899
G1 X87.011 Y85.117 E40.27325 F1800
G1 X84.408 Y89.625 E40.44640 F756
G1 X84.356 Y89.715 E40.44986 F1800
G1 X83.323 Y91.505 E40.51858 F300
G1 X83.271 Y91.595 E40.52204 F1800
G1 X81.205 Y95.173 E40.65947 F600
G1 X81.152 Y95.263 E40.66294 F1800
G1 X80.601 Y96.219 E40.69964 F636
G1 X80.080 Y97.121 E40.73429 F1800
G1 X79.628 Y97.904 E40.76435 F400
G1 X79.576 Y97.994 E40.76782 F1800
G1 X79.038 Y98.925 E40.80356 F476
G1 X78.986 Y99.015 E40.80703 F1800
G1 X78.667 Y99.569 E40.82828 F283
G1 X78.615 Y99.659 E40.83175 F1800
G1 X78.163 Y100.442 E40.86181 F400
G1 X78.111 Y100.532 E40.86527 F1800
G1 X77.573 Y101.463 E40.90102 F476
G1 X77.521 Y101.553 E40.90449 F1800
G1 X76.546 Y103.242 E40.96935 F283
G1 X76.494 Y103.332 E40.97281 F1800
G1 X73.737 Y108.107 E41.15618 F801
G1 X73.736 Y108.109 E41.15626 F801
G1 X73.684 Y108.199 E41.15972 F1800
G1 X72.933 Y109.500 E41.20970 F756
G1 X72.932 Y109.503 E41.20981 F717
G1 X72.890 Y109.595 E41.21317 F717
G1 X72.890 Y109.599 E41.21329 F669
G1 X72.869 Y109.698 E41.21665 F669
G1 X72.869 Y109.701 E41.21677 F655
G1 X72.869 Y109.802 E41.22013 F655
G1 X72.869 Y109.806 E41.22024 F669
G1 X72.890 Y109.905 E41.22360 F669
G1 X72.892 Y109.908 E41.22372 F717
G1 X72.933 Y110.000 E41.22708 F717
G1 X72.935 Y110.003 E41.22720 F809
G1 X72.994 Y110.085 E41.23056 F809
G1 X72.997 Y110.087 E41.23067 F886
G1 X73.072 Y110.155 E41.23403 F886
G1 X73.075 Y110.156 E41.23415 F761
G1 X73.163 Y110.207 E41.23751 F761
G1 X73.166 Y110.208 E41.23763 F693
G1 X73.262 Y110.239 E41.24099 F693
G1 X73.266 Y110.239 E41.24110 F662
G1 X73.366 Y110.250 E41.24446 F662
G1 X75.633 Y110.250 E41.31987 F659
G1 X75.737 Y110.250 E41.32333 F1800
G1 X79.338 Y110.250 E41.44308 F523
G1 X79.442 Y110.250 E41.44654 F1800
G1 X81.242 Y110.250 E41.50642 F261
G1 X81.346 Y110.250 E41.50988 F1800
G1 X84.946 Y110.250 E41.62963 F523
G1 X85.051 Y110.250 E41.63309 F1800
G1 X86.012 Y110.250 E41.66507 F554
G1 X87.054 Y110.250 E41.69972 F1800
G1 X87.841 Y110.250 E41.72591 F349
G1 X87.945 Y110.250 E41.72938 F1800
G1 X88.882 Y110.250 E41.76053 F415
G1 X88.986 Y110.250 E41.76399 F1800
G1 X89.543 Y110.250 E41.78251 F247
G1 X89.647 Y110.250 E41.78598 F1800
G1 X90.435 Y110.250 E41.81217 F349
G1 X90.539 Y110.250 E41.81563 F1800
G1 X91.475 Y110.250 E41.84678 F415
G1 X91.579 Y110.250 E41.85025 F1800
G1 X93.279 Y110.250 E41.90676 F247
G1 X93.383 Y110.250 E41.91022 F1800
G1 X98.189 Y110.250 E42.07006 F698
G1 X98.293 Y110.250 E42.07353 F1800
G1 X102.829 Y110.250 E42.22440 F659
G1 X102.933 Y110.250 E42.22786 F1800
G1 X104.113 Y110.250 E42.26711 F523
G1 X104.217 Y110.250 E42.27057 F1800
G1 X104.807 Y110.250 E42.29019 F261
G1 X104.911 Y110.250 E42.29366 F1800
G1 X105.501 Y110.250 E42.31328 F261
G1 X105.605 Y110.250 E42.31675 F1800
G1 X107.405 Y110.250 E42.37662 F261
G1 X107.510 Y110.250 E42.38008 F1800
G1 X110.537 Y110.250 E42.48078 F440
G1 X110.641 Y110.250 E42.48424 F1800
G1 X113.849 Y110.250 E42.59092 F466
G1 X113.953 Y110.250 E42.59439 F1800
G1 X114.787 Y110.250 E42.62214 F370
G1 X114.891 Y110.250 E42.62560 F1800
G1 X115.726 Y110.250 E42.65335 F370
G1 X115.830 Y110.250 E42.65682 F1800
G1 X116.617 Y110.250 E42.68301 F349
G1 X116.721 Y110.250 E42.68647 F1800
G1 X119.267 Y110.250 E42.77115 F370
G1 X119.371 Y110.250 E42.77461 F1800
G1 X120.025 Y110.250 E42.79635 F554
G1 X121.634 Y110.250 E42.84986 F554
G1 X121.637 Y110.250 E42.84998 F557
G1 X121.738 Y110.239 E42.85334 F557
G1 X121.741 Y110.238 E42.85346 F582
G1 X121.837 Y110.207 E42.85682 F582
G1 X121.840 Y110.205 E42.85693 F640
G1 X121.928 Y110.155 E42.86029 F640
G1 X121.930 Y110.152 E42.86041 F745
G1 X122.006 Y110.085 E42.86377 F745
G1 X122.008 Y110.082 E42.86388 F681
G1 X122.067 Y110.000 E42.86725 F681
G1 X122.068 Y109.997 E42.86736 F603
G1 X122.109 Y109.905 E42.87072 F603
G1 X122.110 Y109.901 E42.87084 F563
G1 X122.131 Y109.802 E42.87420 F563
G1 X122.131 Y109.799 E42.87431 F551
G1 X122.131 Y109.698 E42.87768 F551
G1 X122.131 Y109.694 E42.87779 F563
G1 X122.109 Y109.595 E42.88115 F563
G1 X122.108 Y109.592 E42.88127 F603
G1 X122.067 Y109.500 E42.88463 F603
G1 X121.727 Y108.911 E42.90723 F636
G1 X121.675 Y108.821 E42.91070 F1800
G1 X119.609 Y105.243 E43.04813 F600
G1 X119.557 Y105.153 E43.05159 F1800
G1 X119.020 Y104.222 E43.08734 F476
G1 X118.968 Y104.132 E43.09080 F1800
G1 X118.516 Y103.349 E43.12086 F400
G1 X118.464 Y103.259 E43.12433 F1800
G1 X118.061 Y102.561 E43.15111 F357
G1 X118.009 Y102.471 E43.15457 F1800
G1 X116.630 Y100.083 E43.24630 F400
G1 X116.578 Y99.993 E43.24976 F1800
G1 X115.199 Y97.604 E43.34149 F400
G1 X115.147 Y97.514 E43.34495 F1800
G1 X114.380 Y96.185 E43.39600 F449
G1 X114.328 Y96.095 E43.39946 F1800
G1 X113.950 Y95.442 E43.42455 F449
G1 X113.898 Y95.351 E43.42802 F1800
G1 X113.475 Y94.618 E43.45618 F505
G1 X113.423 Y94.528 E43.45964 F1800
G1 X111.473 Y91.150 E43.58936 F566
G1 X111.421 Y91.060 E43.59282 F1800
G1 X110.653 Y89.731 E43.64387 F449
G1 X110.601 Y89.641 E43.64733 F1800
G1 X110.319 Y89.151 E43.66613 F337
G1 X110.267 Y89.061 E43.66960 F1800
G1 X109.949 Y88.512 E43.69069 F378
G1 X109.897 Y88.422 E43.69416 F1800
G1 X108.748 Y86.430 E43.77064 F673
G1 X108.695 Y86.340 E43.77411 F1800
G1 X107.928 Y85.011 E43.82515 F449
G1 X107.876 Y84.921 E43.82862 F1800
G1 X106.852 Y83.146 E43.89675 F600
G1 X106.800 Y83.056 E43.90022 F1800
G1 X106.548 Y82.620 E43.91696 F300
G1 X106.496 Y82.530 E43.92043 F1800
G1 X106.244 Y82.094 E43.93717 F300
G1 X106.192 Y82.004 E43.94064 F1800
G1 X105.680 Y81.117 E43.97471 F300
G1 X105.628 Y81.026 E43.97817 F1800
G1 X105.376 Y80.590 E43.99492 F300
G1 X105.324 Y80.500 E43.99838 F1800
G1 X105.072 Y80.064 E44.01513 F300
G1 X105.020 Y79.974 E44.01859 F1800
G1 X104.375 Y78.856 E44.06152 F378
G1 X104.323 Y78.766 E44.06498 F1800
G1 X104.071 Y78.330 E44.08173 F300
G1 X104.019 Y78.240 E44.08519 F1800
G1 X103.767 Y77.804 E44.10194 F300
G1 X103.715 Y77.714 E44.10540 F1800
G1 X103.140 Y76.718 E44.14364 F337
G1 X103.088 Y76.628 E44.14711 F1800
G1 X102.432 Y75.491 E44.19076 F378
G1 X101.053 Y73.103 E44.28248 F400
G1 X101.001 Y73.013 E44.28595 F1800
G1 X100.549 Y72.230 E44.31601 F400
G1 X100.497 Y72.140 E44.31947 F1800
G1 X100.045 Y71.357 E44.34953 F400
G1 X99.993 Y71.267 E44.35300 F1800
G1 X99.541 Y70.484 E44.38306 F400
G1 X99.489 Y70.394 E44.38652 F1800
G1 X98.737 Y69.092 E44.43651 F400
G1 X98.458 Y68.608 E44.45512 F400
G1 X98.406 Y68.517 E44.45859 F1800
G1 X98.070 Y67.935 E44.48094 F400
G1 X98.018 Y67.845 E44.48440 F1800
G1 X97.933 Y67.699 E44.49003 F400
G1 Z0.800 F120
G1 X97.951 Y68.335 F347
G1 X97.954 Y68.439 F1800
G1 X97.976 Y69.222 F347
G1 X97.979 Y69.326 F1800
G1 X98.001 Y70.109 F347
G1 X98.004 Y70.213 F1800
G1 X98.049 Y71.818 F347
G1 X98.069 Y72.516 F309
G1 X98.072 Y72.620 F1800
G1 X98.140 Y75.008 F347
G1 X98.143 Y75.112 F1800
G1 X98.188 Y76.704 F309
G1 X98.190 Y76.808 F1800
G1 X98.207 Y77.390 F347
G1 X98.210 Y77.494 F1800
G1 X98.232 Y78.277 F347
G1 X98.235 Y78.381 F1800
G1 X98.257 Y79.163 F347
G1 X98.260 Y79.268 F1800
G1 X98.282 Y80.050 F347
G1 X98.285 Y80.154 F1800
G1 X98.328 Y81.660 F347
G1 X98.342 Y82.180 F1800
G1 X98.362 Y82.878 F309
G1 X98.365 Y82.982 F1800
G1 X98.432 Y85.370 F347
G1 X98.435 Y85.474 F1800
G1 X98.475 Y86.892 F275
G1 X98.478 Y86.996 F1800
G1 X98.495 Y87.578 F347
G1 X98.498 Y87.682 F1800
G1 X98.520 Y88.465 F347
G1 X98.523 Y88.569 F1800
G1 X98.545 Y89.352 F347
G1 X98.548 Y89.456 F1800
G1 X98.570 Y90.239 F347
G1 X98.573 Y90.343 F1800
G1 X98.606 Y91.527 F347
G1 X98.609 Y91.631 F1800
G1 X98.622 Y92.067 F260
G1 X98.625 Y92.171 F1800
G1 X98.637 Y92.607 F260
G1 X98.640 Y92.711 F1800
G1 X98.665 Y93.598 F260
G1 X98.668 Y93.702 F1800
G1 X98.680 Y94.138 F260
G1 X98.683 Y94.243 F1800
G1 X98.696 Y94.679 F260
G1 X98.698 Y94.783 F1800
G1 X98.724 Y95.670 F260
G1 X98.726 Y95.774 F1800
G1 X98.739 Y96.210 F260
G1 X98.742 Y96.314 F1800
G1 X98.754 Y96.750 F260
G1 X98.757 Y96.854 F1800
G1 X98.782 Y97.741 F260
G1 X98.785 Y97.845 F1800
G1 X98.810 Y98.732 F260
G1 X98.813 Y98.837 F1800
G1 X98.881 Y101.225 F347
G1 X98.883 Y101.329 F1800
G1 X98.934 Y103.118 F260
G1 X98.937 Y103.222 F1800
G1 X98.970 Y104.406 F347
G1 X98.973 Y104.511 F1800
G1 X99.007 Y105.695 F347
G1 X99.010 Y105.799 F1800
G1 X99.026 Y106.381 F347
G1 X99.029 Y106.485 F1800
G1 X99.048 Y107.138 F389
G1 X99.051 Y107.242 F1800
G1 X99.071 Y107.976 F437
G1 X99.074 Y108.080 F1800
G1 X99.096 Y108.857 F463
G1 X99.099 Y108.961 F1800
G1 X99.200 Y112.539 F520
G1 X99.203 Y112.643 F1800
G1 X99.223 Y113.341 F309
G1 X99.226 Y113.445 F1800
G1 X99.246 Y114.142 F309
G1 X99.249 Y114.246 F1800
G1 X99.266 Y114.868 F275
G1 X99.269 Y114.972 F1800
G1 X99.299 Y116.027 F309
G1 X99.302 Y116.131 F1800
G1 X99.352 Y117.905 F520
G1 X99.355 Y118.009 F1800
G1 X99.388 Y119.182 F520
G1 X99.391 Y119.286 F1800
G1 X99.426 Y120.528 F551
G1 X99.429 Y120.632 F1800
G1 X99.468 Y122.027 F618
G1 X99.471 Y122.131 F1800
G1 X99.538 Y124.499 F694
G1 X99.541 Y124.604 F1800
G1 X99.568 Y125.543 F275
G1 X99.571 Y125.648 F1800
G1 X99.584 Y126.109 F275
G1 X99.587 Y126.214 F1800
G1 X99.601 Y126.732 F309
G1 X99.604 Y126.836 F1800
G1 X99.621 Y127.418 F347
G1 X99.624 Y127.522 F1800
G1 X99.642 Y128.176 F389
G1 X99.645 Y128.280 F1800
G1 X99.685 Y129.688 F413
G1 X99.688 Y129.792 F1800
G1 X99.706 Y130.429 F275
G1 X99.765 Y132.512 F1800
G1 X99.809 Y134.077 F694
G1 X99.812 Y134.181 F1800
G1 X99.851 Y135.576 F618
G1 X99.854 Y135.680 F1800
G1 X99.889 Y136.923 F551
G1 X99.892 Y137.027 F1800
G1 X99.933 Y138.457 F618
G1 X99.947 Y138.978 F1800
G1 X99.970 Y139.789 F413
G1 X99.973 Y139.893 F1800
G1 X100.008 Y141.136 F551
G1 X100.011 Y141.240 F1800
G1 X100.087 Y143.916 F520
G1 X100.090 Y144.020 F1800
G1 X100.110 Y144.713 F413
G1 X100.113 Y144.817 F1800
G1 X100.163 Y146.607 F413
G1 X100.226 Y148.830 F1800
G1 X101.458 Y146.696 E44.57196 F1800
G1 X103.524 Y143.118 E44.70939 F600
G1 X103.576 Y143.028 E44.71286 F1800
G1 X104.024 Y142.251 E44.74269 F535
G1 X104.076 Y142.161 E44.74616 F1800
G1 X104.432 Y141.544 E44.76984 F424
G1 X104.484 Y141.454 E44.77331 F1800
G1 X104.933 Y140.677 E44.80314 F535
G1 X104.985 Y140.587 E44.80661 F1800
G1 X105.489 Y139.715 E44.84010 F600
G1 X105.541 Y139.624 E44.84356 F1800
G1 X106.994 Y137.108 E44.94022 F636
G1 X107.046 Y137.017 E44.94369 F1800
G1 X107.498 Y136.235 E44.97375 F400
G1 X107.550 Y136.144 E44.97721 F1800
G1 X109.011 Y133.614 E45.07439 F424
G1 X109.063 Y133.524 E45.07786 F1800
G1 X110.087 Y131.750 E45.14599 F600
G1 X110.139 Y131.660 E45.14946 F1800
G1 X111.052 Y130.079 E45.21016 F535
G1 X111.104 Y129.989 E45.21363 F1800
G1 X111.917 Y128.581 E45.26771 F476
G1 X111.969 Y128.490 E45.27117 F1800
G1 X112.369 Y127.798 E45.29775 F476
G1 X112.421 Y127.708 E45.30122 F1800
G1 X112.869 Y126.931 E45.33106 F535
G1 X112.921 Y126.841 E45.33452 F1800
G1 X114.293 Y124.465 E45.42576 F600
G1 X114.345 Y124.375 E45.42922 F1800
G1 X114.747 Y123.678 E45.45600 F357
G1 X114.800 Y123.588 E45.45947 F1800
G1 X116.178 Y121.199 E45.55119 F400
G1 X116.230 Y121.109 E45.55466 F1800
G1 X117.143 Y119.529 E45.61536 F535
G1 X117.195 Y119.438 E45.61882 F1800
G1 X118.008 Y118.030 E45.67290 F476
G1 X118.060 Y117.940 E45.67637 F1800
G1 X118.828 Y116.611 E45.72741 F449
G1 X118.880 Y116.521 E45.73088 F1800
G1 X119.257 Y115.867 E45.75597 F449
G1 X119.309 Y115.777 E45.75943 F1800
G1 X119.732 Y115.044 E45.78760 F505
G1 X119.784 Y114.954 E45.79106 F1800
G1 X121.079 Y112.711 E45.87718 F566
G1 X121.131 Y112.621 E45.88064 F1800
G1 X121.638 Y111.743 E45.91438 F449
G1 X121.690 Y111.652 E45.91785 F1800
G1 X122.458 Y110.323 E45.96889 F449
G1 X122.510 Y110.233 E45.97236 F1800
G1 X122.792 Y109.744 E45.99115 F337
G1 X122.844 Y109.653 E45.99462 F1800
G1 X123.162 Y109.104 E46.01572 F378
G1 X123.214 Y109.014 E46.01918 F1800
G1 X125.533 Y104.997 E46.17344 F673
G1 X125.585 Y104.907 E46.17691 F1800
G1 X126.609 Y103.133 E46.24504 F600
G1 X126.661 Y103.043 E46.24851 F1800
G1 X126.913 Y102.607 E46.26525 F300
G1 X126.965 Y102.516 E46.26872 F1800
G1 X127.217 Y102.080 E46.28546 F300
G1 X127.269 Y101.990 E46.28893 F1800
G1 X127.781 Y101.103 E46.32300 F300
G1 X127.833 Y101.013 E46.32646 F1800
G1 X128.085 Y100.577 E46.34321 F300
G1 X128.137 Y100.487 E46.34667 F1800
G1 X128.389 Y100.051 E46.36342 F300
G1 X128.441 Y99.960 E46.36688 F1800
G1 X129.086 Y98.843 E46.40981 F378
G1 X129.138 Y98.753 E46.41327 F1800
G1 X129.390 Y98.316 E46.43002 F300
G1 X129.442 Y98.226 E46.43348 F1800
G1 X129.694 Y97.790 E46.45023 F300
G1 X129.746 Y97.700 E46.45369 F1800
G1 X130.258 Y96.813 E46.48776 F300
G1 X130.310 Y96.723 E46.49123 F1800
G1 X130.822 Y95.836 E46.52529 F300
G1 X130.874 Y95.745 E46.52876 F1800
G1 X132.253 Y93.357 E46.62048 F400
G1 X132.305 Y93.267 E46.62395 F1800
G1 X132.644 Y92.681 E46.64647 F300
G1 X132.696 Y92.590 E46.64993 F1800
G1 X133.148 Y91.808 E46.67999 F400
G1 X133.200 Y91.717 E46.68346 F1800
G1 X133.602 Y91.020 E46.71024 F357
G1 X133.654 Y90.930 E46.71370 F1800
G1 X134.338 Y89.746 E46.75918 F400
G1 X134.390 Y89.656 E46.76264 F1800
G1 X135.074 Y88.471 E46.80812 F400
G1 X135.126 Y88.381 E46.81158 F1800
G1 X135.462 Y87.799 E46.83394 F400
G1 X135.514 Y87.709 E46.83740 F1800
G1 X135.891 Y87.056 E46.86249 F449
G1 X135.943 Y86.966 E46.86596 F1800
G1 X136.367 Y86.232 E46.89412 F505
G1 X136.419 Y86.142 E46.89758 F1800
G1 X136.867 Y85.365 E46.92742 F535
G1 X136.919 Y85.275 E46.93089 F1800
G1 X137.423 Y84.403 E46.96438 F600
G1 X137.475 Y84.313 E46.96784 F1800
G1 X138.394 Y82.721 E47.02896 F357
G1 X138.446 Y82.631 E47.03242 F1800
G1 X138.848 Y81.934 E47.05920 F357
G1 X138.900 Y81.844 E47.06267 F1800
G1 X139.303 Y81.146 E47.08945 F357
G1 X139.355 Y81.056 E47.09291 F1800
G1 X139.714 Y80.435 E47.11677 F318
G1 X139.766 Y80.345 E47.12024 F1800
G1 X140.375 Y79.290 E47.16075 F357
G1 X140.427 Y79.199 E47.16422 F1800
G1 X141.451 Y77.425 E47.23235 F600
G1 X141.503 Y77.335 E47.23582 F1800
G1 X142.181 Y76.162 E47.28086 F600
G1 X142.233 Y76.072 E47.28432 F1800
G1 X142.950 Y74.830 E47.33204 F636
G1 X143.002 Y74.739 E47.33551 F1800
G1 X143.807 Y73.345 E47.38907 F714
G1 X143.859 Y73.255 E47.39253 F1800
G1 X146.617 Y68.478 E47.57598 F801
G1 X146.669 Y68.388 E47.57945 F1800
G1 X147.028 Y67.767 E47.60330 F318
G1 X147.067 Y67.699 E47.60591 F1800
G1 X147.069 Y67.694 E47.60607 F1800
G1 X147.078 Y67.675 E47.60677 F1800
G1 X147.109 Y67.603 E47.60938 F301
G1 X147.111 Y67.598 E47.60955 F281
G1 X147.131 Y67.501 E47.61286 F281
G1 X147.131 Y67.496 E47.61302 F275
G1 X147.131 Y67.396 E47.61634 F275
G1 X147.130 Y67.392 E47.61650 F281
G1 X147.109 Y67.294 E47.61981 F281
G1 X147.108 Y67.290 E47.61998 F301
G1 X147.067 Y67.199 E47.62329 F301
G1 X147.064 Y67.195 E47.62345 F340
G1 X147.006 Y67.114 E47.62677 F340
G1 X147.002 Y67.111 E47.62693 F373
G1 X146.945 Y67.059 E47.62948 F373
G1 X146.928 Y67.044 E47.63024 F1800
G1 X146.924 Y67.042 E47.63041 F1800
G1 X146.857 Y67.004 E47.63295 F1800
G1 X146.837 Y66.992 E47.63372 F285
G1 X146.833 Y66.990 E47.63388 F259
G1 X146.738 Y66.960 E47.63720 F259
G1 X146.733 Y66.959 E47.63736 F248
G1 X146.634 Y66.949 E47.64067 F248
G1 X146.301 Y66.949 E47.65176 F247
G1 X146.196 Y66.949 E47.65523 F1800
G1 X144.289 Y66.949 E47.71866 F277
G1 X144.185 Y66.949 E47.72212 F1800
G1 X142.048 Y66.949 E47.79320 F830
G1 X138.470 Y66.949 E47.91221 F830
G1 X138.366 Y66.949 E47.91567 F1800
G1 X132.972 Y66.949 E48.09509 F783
G1 X132.867 Y66.949 E48.09855 F1800
G1 X128.331 Y66.949 E48.24942 F659
G1 X128.227 Y66.949 E48.25289 F1800
G1 X126.427 Y66.949 E48.31276 F261
G1 X126.323 Y66.949 E48.31623 F1800
G1 X122.723 Y66.949 E48.43597 F523
G1 X122.618 Y66.949 E48.43944 F1800
G1 X121.657 Y66.949 E48.47142 F554
G1 X120.615 Y66.949 E48.50606 F1800
G1 X119.828 Y66.949 E48.53226 F349
G1 X119.723 Y66.949 E48.53572 F1800
G1 X118.787 Y66.949 E48.56687 F415
G1 X118.683 Y66.949 E48.57033 F1800
G1 X118.126 Y66.949 E48.58886 F247
G1 X118.022 Y66.949 E48.59232 F1800
G1 X117.234 Y66.949 E48.61851 F349
G1 X117.130 Y66.949 E48.62198 F1800
G1 X116.194 Y66.949 E48.65313 F415
G1 X116.089 Y66.949 E48.65659 F1800
G1 X114.390 Y66.949 E48.71310 F247
G1 X114.286 Y66.949 E48.71657 F1800
G1 X109.480 Y66.949 E48.87641 F698
G1 X109.376 Y66.949 E48.87987 F1800
G1 X104.840 Y66.949 E49.03074 F659
G1 X104.736 Y66.949 E49.03421 F1800
G1 X101.136 Y66.949 E49.15395 F523
G1 X101.032 Y66.949 E49.15742 F1800
G1 X99.231 Y66.949 E49.21729 F261
G1 X99.127 Y66.949 E49.22075 F1800
G1 X95.527 Y66.949 E49.34050 F523
G1 X95.423 Y66.949 E49.34396 F1800
G1 X94.461 Y66.949 E49.37595 F554
G1 X93.420 Y66.949 E49.41059 F1800
G1 X92.632 Y66.949 E49.43679 F349
G1 X92.528 Y66.949 E49.44025 F1800
G1 X91.591 Y66.949 E49.47140 F415
G1 X91.487 Y66.949 E49.47486 F1800
G1 X90.930 Y66.949 E49.49338 F247
G1 X90.826 Y66.949 E49.49685 F1800
G1 X90.039 Y66.949 E49.52304 F349
G1 X89.934 Y66.949 E49.52651 F1800
G1 X88.998 Y66.949 E49.55765 F415
G1 X88.894 Y66.949 E49.56112 F1800
G1 X87.195 Y66.949 E49.61763 F247
G1 X87.091 Y66.949 E49.62110 F1800
G1 X82.285 Y66.949 E49.78094 F698
G1 X82.181 Y66.949 E49.78440 F1800
G1 X77.645 Y66.949 E49.93527 F659
G1 X77.540 Y66.949 E49.93874 F1800
G1 X76.360 Y66.949 E49.97798 F523
G1 X76.256 Y66.949 E49.98145 F1800
G1 X75.666 Y66.949 E50.00107 F261
G1 X75.562 Y66.949 E50.00453 F1800
G1 X74.972 Y66.949 E50.02415 F261
G1 X74.868 Y66.949 E50.02762 F1800
G1 X73.068 Y66.949 E50.08749 F261
G1 X72.964 Y66.949 E50.09096 F1800
G1 X69.936 Y66.949 E50.19165 F440
G1 X69.832 Y66.949 E50.19511 F1800
G1 X66.625 Y66.949 E50.30180 F466
G1 X66.520 Y66.949 E50.30526 F1800
